;FLAVOR:Marlin
;TIME:7045
;Filament used: 4.81043m
;Layer height: 0.15
;MINX:120.9
;MINY:117.525
;MINZ:0.3
;MAXX:179.1
;MAXY:182.475
;MAXZ:6.45
;TARGET_MACHINE.NAME:Anet A8 Plus
;Generated with Cura_SteamEngine 5.8.1
M140 S60
M105
M190 S60
M104 S200
M105
M109 S200
M82 ;absolute extrusion mode
G28 ;Home
G1 Z15.0 F2000 ;Move the platform
G92 E0
G92 E0
G1 F1500 E-6.5
;LAYER_COUNT:42
;LAYER:0
M107
M204 S1000
G0 F9000 X122.035 Y118.52 Z0.3
;TYPE:SKIRT
G1 F1500 E0
G1 F2400 X122.478 Y118.163 E0.02838
G1 X122.971 Y117.88 E0.05674
G1 X123.442 Y117.696 E0.08197
G1 X124.049 Y117.564 E0.11296
G1 X124.408 Y117.535 E0.13093
G1 X124.74 Y117.526 E0.1475
G1 X174.845 Y117.525 E2.64725
G1 X175.543 Y117.535 E2.68208
G1 X176.14 Y117.595 E2.71201
G1 X176.69 Y117.741 E2.7404
G1 X177.154 Y117.943 E2.76565
G1 X177.635 Y118.245 E2.79398
G1 X178.108 Y118.664 E2.82551
G1 X178.463 Y119.106 E2.85379
G1 X178.746 Y119.6 E2.8822
G1 X178.947 Y120.131 E2.91052
G1 X179.062 Y120.678 E2.93841
G1 X179.09 Y121.034 E2.95623
G1 X179.099 Y121.365 E2.97275
G1 X179.1 Y178.184 E5.80746
G1 X179.091 Y178.911 E5.84373
G1 X179.033 Y179.508 E5.87365
G1 X178.887 Y180.058 E5.90204
G1 X178.657 Y180.577 E5.93037
G1 X178.348 Y181.055 E5.95876
G1 X177.967 Y181.478 E5.98716
G1 X177.526 Y181.835 E6.01547
G1 X177.032 Y182.119 E6.0439
G1 X176.501 Y182.32 E6.07223
G1 X175.955 Y182.436 E6.10007
G1 X175.592 Y182.465 E6.11824
G1 X175.26 Y182.474 E6.13481
G1 X125.161 Y182.475 E8.63426
G1 X124.463 Y182.466 E8.66909
G1 X123.865 Y182.407 E8.69907
G1 X123.315 Y182.261 E8.72746
G1 X122.795 Y182.03 E8.75584
G1 X122.319 Y181.722 E8.78413
G1 X121.896 Y181.341 E8.81253
G1 X121.539 Y180.898 E8.84092
G1 X121.256 Y180.406 E8.86923
G1 X121.054 Y179.874 E8.89762
G1 X120.939 Y179.328 E8.92546
G1 X120.91 Y178.963 E8.94373
G1 X120.901 Y178.619 E8.9609
G1 X120.9 Y121.751 E11.79805
G1 X120.909 Y121.086 E11.83123
G1 X120.969 Y120.487 E11.86127
G1 X121.115 Y119.939 E11.88956
G1 X121.345 Y119.42 E11.91788
G1 X121.655 Y118.942 E11.94631
G1 X122.035 Y118.52 E11.97464
G0 F9000 X122.289 Y118.829
G1 F2400 X122.68 Y118.508 E11.99988
G1 X123.117 Y118.253 E12.02512
G1 X123.588 Y118.069 E12.05035
G1 X124.082 Y117.963 E12.07555
G1 X124.419 Y117.935 E12.09242
G1 X124.74 Y117.926 E12.10844
G1 X174.839 Y117.925 E14.60789
G1 X175.537 Y117.935 E14.64272
G1 X176.04 Y117.982 E14.66792
G1 X176.53 Y118.108 E14.69317
G1 X176.994 Y118.31 E14.71841
G1 X177.42 Y118.582 E14.74363
G1 X177.798 Y118.917 E14.76883
G1 X178.118 Y119.308 E14.79404
G1 X178.373 Y119.745 E14.81928
G1 X178.556 Y120.216 E14.84449
G1 X178.663 Y120.71 E14.8697
G1 X178.69 Y121.045 E14.88647
G1 X178.699 Y121.365 E14.90244
G1 X178.7 Y178.179 E17.73691
G1 X178.691 Y178.906 E17.77318
G1 X178.645 Y179.409 E17.79838
G1 X178.52 Y179.899 E17.82361
G1 X178.319 Y180.363 E17.84883
G1 X178.048 Y180.79 E17.87407
G1 X177.713 Y181.169 E17.8993
G1 X177.323 Y181.49 E17.9245
G1 X176.887 Y181.746 E17.94973
G1 X176.416 Y181.929 E17.97494
G1 X175.922 Y182.037 E18.00016
G1 X175.581 Y182.065 E18.01723
G1 X175.26 Y182.074 E18.03326
G1 X125.166 Y182.075 E20.53245
G1 X124.468 Y182.066 E20.56728
G1 X123.964 Y182.019 E20.59253
G1 X123.474 Y181.894 E20.61776
G1 X123.01 Y181.693 E20.64299
G1 X122.584 Y181.422 E20.66818
G1 X122.205 Y181.087 E20.69342
G1 X121.884 Y180.696 E20.71866
G1 X121.629 Y180.26 E20.74386
G1 X121.445 Y179.789 E20.76908
G1 X121.338 Y179.295 E20.7943
G1 X121.31 Y178.952 E20.81147
G1 X121.301 Y178.619 E20.82809
G1 X121.3 Y121.756 E23.665
G1 X121.309 Y121.091 E23.69818
G1 X121.356 Y120.587 E23.72343
G1 X121.482 Y120.098 E23.74862
G1 X121.683 Y119.634 E23.77385
G1 X121.954 Y119.207 E23.79908
G1 X122.289 Y118.829 E23.82428
G1 F1500 E17.32428
;MESH:TOOL-BIOPH-PressTool.stl
G0 F9000 X124.914 Y120.46
G0 X128.072 Y152.219
;TYPE:WALL-INNER
G1 F1500 E23.82428
G1 F2400 X127.595 Y152.277 E23.84825
G1 X127.12 Y152.218 E23.87213
G1 X126.674 Y152.033 E23.89622
G1 X126.286 Y151.735 E23.92063
G1 X126.04 Y151.414 E23.94081
G1 F2191.8 X125.723 Y150.843 E23.97649
G1 F1963.2 X125.68 Y150.417 E24.0026
G1 F1825.1 X125.723 Y150.009 E24.02951
G1 F2016.8 X126.04 Y149.433 E24.06855
G1 F2400 X126.286 Y149.113 E24.08869
G1 X126.674 Y148.815 E24.11309
G1 X127.12 Y148.63 E24.13718
G1 X127.595 Y148.571 E24.16106
G1 X128.072 Y148.629 E24.18504
G1 X128.528 Y148.816 E24.20962
G1 X128.915 Y149.114 E24.23399
G1 X129.206 Y149.501 E24.25815
G1 X129.395 Y149.947 E24.28232
G1 X129.448 Y150.424 E24.30626
G1 X129.394 Y150.903 E24.33031
G1 X129.206 Y151.347 E24.35436
G1 X128.915 Y151.734 E24.37852
G1 X128.528 Y152.032 E24.40289
G1 X128.072 Y152.219 E24.42748
G1 F1500 E17.92748
G0 F9000 X128.09 Y152.317
G0 X128.63 Y152.207
G0 X130.268 Y152.207
G0 X136.322 Y164.607
G1 F1500 E24.42748
G1 F2400 X136.097 Y164.671 E24.43915
G1 X130.968 Y164.667 E24.69503
G1 X130.784 Y164.612 E24.70462
G1 X130.595 Y164.467 E24.7165
G1 X130.448 Y164.153 E24.7338
G1 X130.448 Y123.172 E26.77835
G1 X130.494 Y122.94 E26.79015
G1 X130.688 Y122.691 E26.8059
G1 X130.962 Y122.572 E26.8208
G1 X136.048 Y122.572 E27.07454
G1 X136.408 Y122.692 E27.09347
G1 X136.602 Y122.941 E27.10922
G1 X136.648 Y123.172 E27.12097
G1 X136.647 Y164.196 E29.16767
G1 X136.501 Y164.466 E29.18298
G1 X136.322 Y164.607 E29.19435
G1 F1500 E22.69435
G0 F9000 X136.801 Y164.283
G0 X138.861 Y166.273
G0 X150 Y170.724
G1 F1500 E29.19435
G1 F2400 X141.95 Y170.724 E29.59597
G1 X141.699 Y170.613 E29.60966
G1 X141.532 Y170.432 E29.62194
G1 X141.448 Y170.237 E29.63254
G1 X141.448 Y169.023 E29.6931
G1 X141.213 Y169.336 E29.71263
G1 X140.822 Y169.637 E29.73725
G1 X140.36 Y169.816 E29.76197
G1 X139.912 Y169.877 E29.78452
G1 X139.422 Y169.813 E29.80918
G1 X138.974 Y169.627 E29.83338
G1 X138.59 Y169.331 E29.85757
G1 X138.294 Y168.946 E29.8818
G1 X138.114 Y168.511 E29.90528
G1 X138.041 Y168.028 E29.92965
G1 X138.107 Y167.548 E29.95383
G1 X138.305 Y167.078 E29.97927
G1 X138.591 Y166.715 E30.00233
G1 X138.979 Y166.418 E30.0267
G1 X139.422 Y166.231 E30.05069
G1 X139.9 Y166.171 E30.07473
G1 X140.373 Y166.23 E30.09851
G1 X140.825 Y166.414 E30.12286
G1 X141.214 Y166.712 E30.1473
G1 X141.448 Y167.025 E30.1668
G1 X141.448 Y133.871 E31.82086
G1 X141.213 Y134.184 E31.84039
G1 X140.826 Y134.482 E31.86476
G1 X140.377 Y134.665 E31.88895
G1 X139.9 Y134.73 E31.91296
G1 X139.415 Y134.663 E31.93739
G1 X138.974 Y134.481 E31.96119
G1 X138.588 Y134.184 E31.98549
G1 X138.291 Y133.798 E32.00979
G1 X138.108 Y133.356 E32.03366
G1 X138.048 Y132.872 E32.05799
G1 X138.106 Y132.4 E32.08171
G1 X138.29 Y131.947 E32.10611
G1 X138.591 Y131.555 E32.13076
G1 X138.97 Y131.27 E32.15442
G1 X139.415 Y131.08 E32.17856
G1 X139.9 Y131.019 E32.20295
G1 X140.377 Y131.078 E32.22693
G1 X140.827 Y131.267 E32.25128
G1 X141.212 Y131.558 E32.27536
G1 X141.448 Y131.873 E32.29499
G1 X141.448 Y126.006 E32.5877
G1 X141.541 Y125.802 E32.59888
G1 X141.66 Y125.665 E32.60794
G1 X141.978 Y125.524 E32.62529
G1 X150.048 Y125.524 E33.02791
G1 X150.243 Y125.556 E33.03776
G1 X150.408 Y125.644 E33.04709
G1 X150.528 Y125.764 E33.05556
G1 X150.648 Y126.045 E33.0708
G1 X150.648 Y170.197 E35.27356
G1 X150.574 Y170.414 E35.28499
G1 X150.463 Y170.559 E35.2941
G1 X150.28 Y170.678 E35.305
G1 X150.125 Y170.724 E35.31306
G1 X150 Y170.724 E35.3193
G1 F1500 E28.8193
G0 F9000 X141.622 Y170.553
G0 X141.268 Y150.944
G0 X129.648 Y150.424
G0 X129.286 Y150.47
G0 X129.235 Y150.863
G0 X129.067 Y151.272
G0 X128.797 Y151.622
G0 X128.447 Y151.892
G0 X128.038 Y152.06
G0 X127.6 Y152.119
G0 X127.162 Y152.06
G0 X126.831 Y151.924
G0 X125.606 Y150.944
G0 X150 Y178.272
G1 F1500 E35.3193
G1 F2400 X174.9 Y178.272 E36.56156
G1 X174.9 Y168.959 E37.02619
G1 F2133.3 X174.809 Y168.454 E37.05499
G1 X174.46 Y169.01 E37.09184
G1 F2400 X174.217 Y169.333 E37.112
G1 X173.825 Y169.634 E37.13666
G1 X173.373 Y169.818 E37.16101
G1 X172.901 Y169.877 E37.18474
G1 X172.421 Y169.818 E37.20887
G1 X171.974 Y169.633 E37.233
G1 X171.586 Y169.335 E37.25741
G1 X171.29 Y168.949 E37.28168
G1 X171.106 Y168.502 E37.30579
G1 X171.048 Y168.024 E37.32982
G1 X171.106 Y167.545 E37.35389
G1 X171.291 Y167.099 E37.37798
G1 X171.585 Y166.714 E37.40214
G1 X171.974 Y166.415 E37.42662
G1 X172.421 Y166.23 E37.45076
G1 X172.901 Y166.171 E37.47489
G1 X173.373 Y166.23 E37.49862
G1 X173.825 Y166.414 E37.52296
G1 X174.217 Y166.715 E37.54762
G1 X174.46 Y167.038 E37.56779
G1 F1923.8 X174.801 Y167.614 E37.60945
G1 F1751.8 X174.851 Y167.415 E37.62347
G1 F2138.1 X174.9 Y167.089 E37.64193
G1 F2400 X174.9 Y151.607 E38.41433
G1 F2133.3 X174.809 Y151.102 E38.44313
G1 X174.46 Y151.658 E38.47998
G1 F2400 X174.217 Y151.981 E38.50014
G1 X173.825 Y152.282 E38.5248
G1 X173.377 Y152.465 E38.54895
G1 X172.901 Y152.53 E38.57291
G1 X172.417 Y152.464 E38.59728
G1 X171.974 Y152.281 E38.6212
G1 X171.586 Y151.983 E38.6456
G1 X171.29 Y151.597 E38.66987
G1 X171.106 Y151.15 E38.69399
G1 X171.048 Y150.672 E38.71801
G1 X171.106 Y150.2 E38.74174
G1 X171.29 Y149.747 E38.76613
G1 X171.589 Y149.357 E38.79065
G1 X171.971 Y149.069 E38.81451
G1 X172.42 Y148.88 E38.83882
G1 X172.9 Y148.819 E38.86296
G1 X173.374 Y148.878 E38.88679
G1 X173.83 Y149.07 E38.91147
G1 X174.215 Y149.361 E38.93555
G1 X174.46 Y149.686 E38.95586
G1 F1923.8 X174.801 Y150.265 E38.99768
G1 F1748.6 X174.85 Y150.071 E39.01138
G1 F2133.3 X174.9 Y149.741 E39.03011
G1 F2400 X174.9 Y133.807 E39.82506
G1 F2133.3 X174.809 Y133.302 E39.85386
G1 X174.46 Y133.858 E39.89071
G1 F2400 X174.217 Y134.181 E39.91087
G1 X173.825 Y134.482 E39.93553
G1 X173.377 Y134.665 E39.95967
G1 X172.899 Y134.73 E39.98374
G1 X172.417 Y134.664 E40.00801
G1 X171.974 Y134.481 E40.03193
G1 X171.588 Y134.184 E40.05622
G1 X171.291 Y133.798 E40.08052
G1 X171.108 Y133.356 E40.10439
G1 X171.048 Y132.872 E40.12872
G1 X171.106 Y132.4 E40.15245
G1 X171.29 Y131.947 E40.17684
G1 X171.591 Y131.555 E40.2015
G1 X171.973 Y131.267 E40.22536
G1 X172.42 Y131.078 E40.24958
G1 X172.899 Y131.019 E40.27365
G1 X173.374 Y131.078 E40.29753
G1 X173.83 Y131.27 E40.32222
G1 X174.215 Y131.561 E40.3463
G1 X174.46 Y131.886 E40.3666
G1 F1923.8 X174.801 Y132.465 E40.40842
G1 F1748.6 X174.85 Y132.271 E40.42212
G1 F2133.3 X174.9 Y131.941 E40.44086
G1 F2400 X174.9 Y121.724 E40.95058
G1 X125.1 Y121.724 E43.43512
G1 X125.101 Y149.4 E44.81588
G1 F2243 X125.128 Y149.724 E44.83323
G1 F1904.8 X125.175 Y149.972 E44.8491
G1 F1784.4 X125.162 Y150.424 E44.87944
G1 X125.176 Y150.912 E44.9122
G1 F1875 X125.135 Y151.124 E44.92599
G1 F2201.8 X125.101 Y151.448 E44.94371
G1 F2400 X125.1 Y178.272 E46.28196
G1 X150 Y178.272 E47.52423
G1 F1500 E41.02423
G0 F9000 X125.606 Y150.944
G0 X126.753 Y151.892
G0 X127.162 Y152.06
G0 X127.6 Y152.119
G0 X128.038 Y152.06
G0 X128.447 Y151.892
G0 X129.057 Y151.877
G0 X157.848 Y151.877
G0 X158.345 Y176.402
G1 F1500 E47.52423
G1 F2400 X158.148 Y176.232 E47.53721
G1 X158.028 Y175.993 E47.55055
G1 X158.028 Y147.136 E48.99024
G1 X158.173 Y146.82 E49.00758
G1 X158.312 Y146.701 E49.01671
G1 X158.55 Y146.612 E49.02939
G1 X169.526 Y146.612 E49.57698
G1 X169.725 Y146.655 E49.58714
G1 X169.866 Y146.736 E49.59525
G1 X170.028 Y146.925 E49.60767
G1 X170.097 Y147.152 E49.61951
G1 X170.1 Y175.993 E51.05839
G1 X169.98 Y176.232 E51.07173
G1 X169.783 Y176.402 E51.08472
G1 X169.578 Y176.472 E51.09552
G1 X158.628 Y176.472 E51.64182
G1 X158.345 Y176.402 E51.65636
G1 F1500 E45.15636
G0 F9000 X157.928 Y175.786
G0 X158.202 Y176.303
G0 X169.928 Y176.303
G0 X170.299 Y168.93
G0 X170.975 Y168.654
G0 X174.799 Y168.469
G1 F1500 E51.65636
G1 F1663.8 X174.824 Y168.024 E51.68844
G1 F1669.6 X174.801 Y167.614 E51.71789
G0 F9000 X174.731 Y167.118
G0 X174.731 Y151.578
G0 X174.799 Y151.117
G1 F1663.8 X174.824 Y150.672 E51.74997
G1 F1669.6 X174.801 Y150.265 E51.7792
G1 F1500 E45.2792
G0 F9000 X174.731 Y149.766
G0 X173.747 Y149.208
G0 X173.338 Y149.04
G0 X172.9 Y148.981
G0 X172.441 Y149.066
G0 X171.874 Y148.893
G0 X169.679 Y141.992
G0 X164.233 Y141.665
G1 F1500 E51.7792
G1 F2400 X164.088 Y141.476 E51.79109
G1 X164.033 Y141.292 E51.80067
G1 X164.028 Y123.172 E52.70468
G1 X164.074 Y122.94 E52.71648
G1 X164.268 Y122.691 E52.73223
G1 X164.542 Y122.572 E52.74713
G1 X169.628 Y122.572 E53.00087
G1 X169.988 Y122.692 E53.0198
G1 X170.182 Y122.941 E53.03555
G1 X170.228 Y123.172 E53.0473
G1 X170.228 Y141.318 E53.95261
G1 X170.153 Y141.504 E53.96261
G1 X169.974 Y141.703 E53.97597
G1 X169.668 Y141.811 E53.99216
G1 X164.515 Y141.812 E54.24924
G1 X164.233 Y141.665 E54.26511
G1 F1500 E47.76511
G0 F9000 X163.928 Y141.193
G0 X164.202 Y141.643
G0 X170.058 Y141.643
G0 X170.408 Y133.778
G0 X170.972 Y133.547
G0 X174.799 Y133.317
G1 F1500 E54.26511
G1 F1663.8 X174.824 Y132.872 E54.29718
G1 F1669.6 X174.801 Y132.465 E54.32642
G1 F1500 E47.82642
G0 F9000 X174.731 Y131.966
G0 X174.535 Y133.313
G0 X174.367 Y133.722
G0 X174.097 Y134.072
G0 X173.747 Y134.342
G0 X172.861 Y134.624
G0 X172.901 Y134.327
;TYPE:WALL-OUTER
G1 F1500 E54.32642
G1 F2400 X172.549 Y134.279 E54.34414
G1 X172.199 Y134.141 E54.36291
G1 X171.894 Y133.915 E54.38185
G1 X171.657 Y133.618 E54.40081
G1 X171.493 Y133.224 E54.4221
G1 X171.445 Y132.87 E54.43992
G1 X171.506 Y132.476 E54.45981
G1 X171.63 Y132.172 E54.47619
G1 X171.874 Y131.844 E54.49659
G1 X172.197 Y131.607 E54.51658
G1 X172.526 Y131.468 E54.53439
G1 X172.925 Y131.425 E54.55442
G1 X173.275 Y131.469 E54.57201
G1 X173.645 Y131.632 E54.59219
G1 X173.928 Y131.846 E54.60989
G1 X174.165 Y132.17 E54.62991
G1 X174.304 Y132.499 E54.64773
G1 X174.348 Y132.872 E54.66647
G1 X174.306 Y133.231 E54.6845
G1 X174.14 Y133.617 E54.70547
G1 X173.944 Y133.877 E54.72171
G1 X173.624 Y134.133 E54.74216
G1 X173.248 Y134.279 E54.76228
G1 X172.901 Y134.327 E54.77976
G0 F9000 X172.703 Y134.3
G1 F1500 E48.27976
G0 F9000 X172.92 Y134.828
G0 X171.871 Y134.655
G0 X170.408 Y134.655
G0 X164.496 Y141.363
G1 F1500 E54.77976
G1 F2400 X164.429 Y141.239 E54.78679
G1 X164.428 Y123.113 E55.6911
G1 X164.508 Y123.011 E55.69756
G1 X164.593 Y122.974 E55.70219
G1 X169.628 Y122.972 E55.95339
G1 X169.748 Y123.012 E55.9597
G1 X169.828 Y123.114 E55.96617
G1 X169.826 Y141.247 E56.87082
G1 X169.744 Y141.376 E56.87845
G1 X169.642 Y141.412 E56.88385
G1 X164.578 Y141.406 E57.13649
G1 X164.496 Y141.363 E57.14111
G0 F9000 X164.429 Y141.239
G0 X164.429 Y141.18
G1 F1500 E50.64111
G0 F9000 X163.928 Y141.18
G0 X164.202 Y141.643
G0 X169.679 Y141.992
G0 X172.368 Y148.687
G0 X172.901 Y152.127
G1 F1500 E57.14111
G1 F2400 X172.549 Y152.079 E57.15883
G1 X172.199 Y151.941 E57.1776
G1 X171.871 Y151.698 E57.19797
G1 X171.631 Y151.373 E57.21813
G1 X171.494 Y151.031 E57.23651
G1 X171.445 Y150.67 E57.25468
G1 X171.506 Y150.276 E57.27457
G1 X171.63 Y149.972 E57.29095
G1 X171.857 Y149.665 E57.31
G1 X172.155 Y149.432 E57.32887
G1 X172.515 Y149.273 E57.34851
G1 X172.925 Y149.225 E57.3691
G1 X173.275 Y149.269 E57.3867
G1 X173.645 Y149.432 E57.40687
G1 X173.928 Y149.646 E57.42457
G1 X174.165 Y149.97 E57.4446
G1 X174.304 Y150.299 E57.46242
G1 X174.348 Y150.672 E57.48116
G1 X174.306 Y151.031 E57.49919
G1 X174.14 Y151.417 E57.52015
G1 X173.944 Y151.677 E57.5364
G1 X173.624 Y151.933 E57.55684
G1 X173.248 Y152.079 E57.57697
G1 X172.901 Y152.127 E57.59444
G0 F9000 X172.703 Y152.1
G1 F1500 E51.09444
G0 F9000 X172.92 Y152.628
G0 X174.712 Y151.635
G0 X174.712 Y167.061
G0 X172.895 Y166.009
G0 X171.703 Y166.828
G0 X171.433 Y167.178
G0 X171.265 Y167.587
G0 X171.206 Y168.025
G0 X171.265 Y168.463
G0 X171.433 Y168.872
G0 X171.586 Y169.071
G0 X172.482 Y169.927
G0 X172.551 Y169.431
G1 F1500 E57.59444
G1 F2400 X172.199 Y169.293 E57.61331
G1 X171.871 Y169.05 E57.63367
G1 X171.631 Y168.725 E57.65383
G1 X171.494 Y168.383 E57.67221
G1 X171.445 Y168.024 E57.69028
G1 X171.493 Y167.673 E57.70796
G1 X171.631 Y167.323 E57.72673
G1 X171.857 Y167.017 E57.74571
G1 X172.154 Y166.781 E57.76463
G1 X172.525 Y166.62 E57.78481
G1 X172.925 Y166.577 E57.80488
G1 X173.296 Y166.63 E57.82358
G1 X173.6 Y166.754 E57.83996
G1 X173.927 Y166.997 E57.86028
G1 X174.14 Y167.279 E57.87791
G1 X174.304 Y167.647 E57.89802
G1 X174.348 Y168.024 E57.91695
G1 X174.306 Y168.383 E57.93498
G1 X174.14 Y168.769 E57.95595
G1 X173.944 Y169.029 E57.97219
G1 X173.625 Y169.284 E57.99257
G1 X173.296 Y169.418 E58.01029
G1 X172.925 Y169.471 E58.02899
G1 X172.551 Y169.431 E58.04775
G0 F9000 X172.365 Y169.358
