;FLAVOR:Marlin
;TIME:7358
;Filament used: 3.00623m
;Layer height: 0.15
;MINX:120.9
;MINY:117.525
;MINZ:0.3
;MAXX:179.1
;MAXY:182.475
;MAXZ:6.45
;TARGET_MACHINE.NAME:Anet A8 Plus
;Generated with Cura_SteamEngine 5.8.1
M140 S60
M105
M190 S60
M104 S200
M105
M109 S200
M82 ;absolute extrusion mode
G28 ;Home
G1 Z15.0 F2000 ;Move the platform
G92 E0
G92 E0
G1 F1500 E-6.5
;LAYER_COUNT:42
;LAYER:0
M107
M204 S1000
G0 F9000 X122.035 Y118.52 Z0.3
;TYPE:SKIRT
G1 F1500 E0
G1 F2400 X122.478 Y118.163 E0.02838
G1 X122.971 Y117.88 E0.05674
G1 X123.442 Y117.696 E0.08197
G1 X124.049 Y117.564 E0.11296
G1 X124.408 Y117.535 E0.13093
G1 X124.74 Y117.526 E0.1475
G1 X174.845 Y117.525 E2.64725
G1 X175.543 Y117.535 E2.68208
G1 X176.14 Y117.595 E2.71201
G1 X176.69 Y117.741 E2.7404
G1 X177.154 Y117.943 E2.76565
G1 X177.635 Y118.245 E2.79398
G1 X178.108 Y118.664 E2.82551
G1 X178.463 Y119.106 E2.85379
G1 X178.746 Y119.6 E2.8822
G1 X178.947 Y120.131 E2.91052
G1 X179.062 Y120.678 E2.93841
G1 X179.09 Y121.034 E2.95623
G1 X179.099 Y121.365 E2.97275
G1 X179.1 Y178.184 E5.80746
G1 X179.091 Y178.911 E5.84373
G1 X179.033 Y179.508 E5.87365
G1 X178.887 Y180.058 E5.90204
G1 X178.657 Y180.577 E5.93037
G1 X178.348 Y181.055 E5.95876
G1 X177.967 Y181.478 E5.98716
G1 X177.526 Y181.835 E6.01547
G1 X177.032 Y182.119 E6.0439
G1 X176.501 Y182.32 E6.07223
G1 X175.955 Y182.436 E6.10007
G1 X175.592 Y182.465 E6.11824
G1 X175.26 Y182.474 E6.13481
G1 X125.161 Y182.475 E8.63426
G1 X124.463 Y182.466 E8.66909
G1 X123.865 Y182.407 E8.69907
G1 X123.315 Y182.261 E8.72746
G1 X122.795 Y182.03 E8.75584
G1 X122.319 Y181.722 E8.78413
G1 X121.896 Y181.341 E8.81253
G1 X121.539 Y180.898 E8.84092
G1 X121.256 Y180.406 E8.86923
G1 X121.054 Y179.874 E8.89762
G1 X120.939 Y179.328 E8.92546
G1 X120.91 Y178.963 E8.94373
G1 X120.901 Y178.619 E8.9609
G1 X120.9 Y121.751 E11.79805
G1 X120.909 Y121.086 E11.83123
G1 X120.969 Y120.487 E11.86127
G1 X121.115 Y119.939 E11.88956
G1 X121.345 Y119.42 E11.91788
G1 X121.655 Y118.942 E11.94631
G1 X122.035 Y118.52 E11.97464
G0 F9000 X122.289 Y118.829
G1 F2400 X122.68 Y118.508 E11.99988
G1 X123.117 Y118.253 E12.02512
G1 X123.588 Y118.069 E12.05035
G1 X124.082 Y117.963 E12.07555
G1 X124.419 Y117.935 E12.09242
G1 X124.74 Y117.926 E12.10844
G1 X174.839 Y117.925 E14.60789
G1 X175.537 Y117.935 E14.64272
G1 X176.04 Y117.982 E14.66792
G1 X176.53 Y118.108 E14.69317
G1 X176.994 Y118.31 E14.71841
G1 X177.42 Y118.582 E14.74363
G1 X177.798 Y118.917 E14.76883
G1 X178.118 Y119.308 E14.79404
G1 X178.373 Y119.745 E14.81928
G1 X178.556 Y120.216 E14.84449
G1 X178.663 Y120.71 E14.8697
G1 X178.69 Y121.045 E14.88647
G1 X178.699 Y121.365 E14.90244
G1 X178.7 Y178.179 E17.73691
G1 X178.691 Y178.906 E17.77318
G1 X178.645 Y179.409 E17.79838
G1 X178.52 Y179.899 E17.82361
G1 X178.319 Y180.363 E17.84883
G1 X178.048 Y180.79 E17.87407
G1 X177.713 Y181.169 E17.8993
G1 X177.323 Y181.49 E17.9245
G1 X176.887 Y181.746 E17.94973
G1 X176.416 Y181.929 E17.97494
G1 X175.922 Y182.037 E18.00016
G1 X175.581 Y182.065 E18.01723
G1 X175.26 Y182.074 E18.03326
G1 X125.166 Y182.075 E20.53245
G1 X124.468 Y182.066 E20.56728
G1 X123.964 Y182.019 E20.59253
G1 X123.474 Y181.894 E20.61776
G1 X123.01 Y181.693 E20.64299
G1 X122.584 Y181.422 E20.66818
G1 X122.205 Y181.087 E20.69342
G1 X121.884 Y180.696 E20.71866
G1 X121.629 Y180.26 E20.74386
G1 X121.445 Y179.789 E20.76908
G1 X121.338 Y179.295 E20.7943
G1 X121.31 Y178.952 E20.81147
G1 X121.301 Y178.619 E20.82809
G1 X121.3 Y121.756 E23.665
G1 X121.309 Y121.091 E23.69818
G1 X121.356 Y120.587 E23.72343
G1 X121.482 Y120.098 E23.74862
G1 X121.683 Y119.634 E23.77385
G1 X121.954 Y119.207 E23.79908
G1 X122.289 Y118.829 E23.82428
G1 F1500 E17.32428
;MESH:Tode-BPIO-FS-249Q.stl
G0 F9000 X132.833 Y125.846
G0 X133.57 Y125.938
G0 X133.569 Y126.223
;TYPE:WALL-INNER
G1 F1500 E23.82428
G1 F1791 X133.948 Y125.845 E23.86007
G1 X133.569 Y125.466 E23.8959
G1 X133.191 Y125.845 E23.93168
G1 X133.569 Y126.223 E23.96742
G1 F1500 E17.46742
G0 F9000 X133.57 Y125.938
G0 X133.57 Y126.583
G0 X133.57 Y127.647
G0 X133.57 Y128.478
G0 X133.569 Y128.762
G1 F1500 E23.96742
G1 F1784.4 X133.949 Y128.383 E24.00343
G1 X133.569 Y128.003 E24.03949
G1 X133.19 Y128.383 E24.07551
G1 X133.569 Y128.762 E24.11147
G1 F1500 E17.61147
G0 F9000 X133.57 Y128.478
G0 X133.57 Y129.123
G0 X133.57 Y130.187
G0 X133.569 Y131.017
G0 X133.567 Y131.301
G1 F1500 E24.11147
G1 F1791 X133.946 Y130.923 E24.14726
G1 X133.567 Y130.544 E24.18309
G1 X133.189 Y130.923 E24.21888
G1 X133.567 Y131.301 E24.25461
G1 F1500 E17.75461
G0 F9000 X133.569 Y131.017
G0 X133.569 Y131.662
G0 X133.569 Y132.728
G0 X133.57 Y133.558
G0 X133.569 Y133.843
G1 F1500 E24.25461
G1 F1791 X133.948 Y133.465 E24.2904
G1 X133.569 Y133.086 E24.32623
G1 X133.19 Y133.465 E24.36206
G1 X133.569 Y133.843 E24.39785
G1 F1500 E17.89785
G0 F9000 X133.57 Y133.558
G0 X133.57 Y134.203
G0 X133.57 Y135.267
G0 X133.57 Y136.098
G0 X133.569 Y136.382
G1 F1500 E24.39785
G1 F1784.4 X133.949 Y136.003 E24.43386
G1 X133.569 Y135.623 E24.46992
G1 X133.19 Y136.003 E24.50594
G1 X133.569 Y136.382 E24.5419
G1 F1500 E18.0419
G0 F9000 X133.57 Y136.098
G0 X133.57 Y136.743
G0 X133.57 Y137.807
G0 X133.57 Y138.638
G0 X133.569 Y138.922
G1 F1500 E24.5419
G1 F1784.4 X133.949 Y138.543 E24.57792
G1 X133.569 Y138.163 E24.61398
G1 X133.19 Y138.543 E24.64999
G1 X133.569 Y138.922 E24.68596
G1 F1500 E18.18596
G0 F9000 X133.57 Y138.638
G0 X133.57 Y139.283
G0 X133.57 Y140.347
G0 X133.57 Y141.178
G0 X133.569 Y141.462
G1 F1500 E24.68596
G1 F1784.4 X133.949 Y141.083 E24.72197
G1 X133.569 Y140.703 E24.75803
G1 X133.19 Y141.083 E24.79404
G1 X133.569 Y141.462 E24.83001
G1 F1500 E18.33001
G0 F9000 X133.57 Y141.178
G0 X133.57 Y141.823
G0 X133.57 Y142.887
G0 X133.57 Y143.718
G0 X133.569 Y144.002
G1 F1500 E24.83001
G1 F1784.4 X133.949 Y143.623 E24.86602
G1 X133.569 Y143.243 E24.90208
G1 X133.19 Y143.623 E24.9381
G1 X133.569 Y144.002 E24.97406
G1 F1500 E18.47406
G0 F9000 X133.57 Y143.718
G0 X133.57 Y144.363
G0 X133.57 Y145.427
G0 X133.57 Y146.258
G0 X133.569 Y146.542
G1 F1500 E24.97406
G1 F1784.4 X133.949 Y146.163 E25.01008
G1 X133.569 Y145.783 E25.04614
G1 X133.19 Y146.163 E25.08215
G1 X133.569 Y146.542 E25.11812
G1 F1500 E18.61812
G0 F9000 X133.57 Y146.258
G0 X133.57 Y146.903
G0 X133.57 Y147.967
G0 X133.57 Y148.798
G0 X133.569 Y149.082
G1 F1500 E25.11812
G1 F1784.4 X133.949 Y148.703 E25.15413
G1 X133.569 Y148.323 E25.19019
G1 X133.19 Y148.703 E25.22621
G1 X133.569 Y149.082 E25.26217
G1 F1500 E18.76217
G0 F9000 X133.57 Y148.798
G0 X133.57 Y149.443
G0 X133.57 Y150.507
G0 X133.57 Y151.338
G0 X133.569 Y151.622
G1 F1500 E25.26217
G1 F1784.4 X133.949 Y151.243 E25.29818
G1 X133.569 Y150.863 E25.33425
G1 X133.19 Y151.243 E25.37026
G1 X133.569 Y151.622 E25.40622
G1 F1500 E18.90622
G0 F9000 X133.57 Y151.338
G0 X133.57 Y151.983
G0 X133.57 Y153.047
G0 X133.57 Y153.878
G0 X133.569 Y154.162
G1 F1500 E25.40622
G1 F1784.4 X133.949 Y153.783 E25.44224
G1 X133.569 Y153.403 E25.4783
G1 X133.19 Y153.783 E25.51431
G1 X133.569 Y154.162 E25.55028
G1 F1500 E19.05028
G0 F9000 X133.57 Y153.878
G0 X133.57 Y154.523
G0 X133.57 Y155.587
G0 X133.57 Y156.418
G0 X133.569 Y156.702
G1 F1500 E25.55028
G1 F1784.4 X133.949 Y156.323 E25.58629
G1 X133.569 Y155.943 E25.62235
G1 X133.19 Y156.323 E25.65837
G1 X133.569 Y156.702 E25.69433
G1 F1500 E19.19433
G0 F9000 X133.57 Y156.418
G0 X133.57 Y157.063
G0 X133.57 Y158.127
G0 X133.57 Y158.958
G0 X133.569 Y159.242
G1 F1500 E25.69433
G1 F1784.4 X133.949 Y158.863 E25.73035
G1 X133.569 Y158.483 E25.76641
G1 X133.19 Y158.863 E25.80242
G1 X133.569 Y159.242 E25.83839
G1 F1500 E19.33839
G0 F9000 X133.57 Y158.958
G0 X133.57 Y159.603
G0 X133.57 Y160.667
G0 X133.57 Y161.498
G0 X133.569 Y161.782
G1 F1500 E25.83839
G1 F1784.4 X133.949 Y161.403 E25.8744
G1 X133.569 Y161.023 E25.91046
G1 X133.19 Y161.403 E25.94647
G1 X133.569 Y161.782 E25.98244
G1 F1500 E19.48244
G0 F9000 X133.57 Y161.498
G0 X133.57 Y162.143
G0 X133.57 Y163.187
G0 X134.986 Y164.47
G1 F1500 E25.98244
G1 F2400 X134.711 Y164.475 E25.99616
G1 X134.472 Y164.369 E26.00921
G1 X133.569 Y163.466 E26.07292
G1 X132.666 Y164.373 E26.13677
G1 X132.45 Y164.47 E26.14858
G1 X132.194 Y164.479 E26.16136
G1 X132.037 Y164.428 E26.1696
G1 X131.875 Y164.313 E26.17951
G1 X130.597 Y163.035 E26.26968
G1 X130.486 Y162.732 E26.28578
G1 X130.493 Y162.568 E26.29397
G1 X130.58 Y162.327 E26.30675
G1 X131.506 Y161.403 E26.37202
G1 X130.66 Y160.557 E26.43171
G1 X130.527 Y160.356 E26.44373
G1 X130.493 Y160.028 E26.46018
G1 X130.58 Y159.787 E26.47296
G1 X131.506 Y158.863 E26.53823
G1 X130.66 Y158.017 E26.59792
G1 X130.527 Y157.816 E26.60994
G1 X130.493 Y157.488 E26.62639
G1 X130.58 Y157.247 E26.63918
G1 X131.506 Y156.323 E26.70444
G1 X130.58 Y155.397 E26.76978
G1 X130.493 Y155.156 E26.78256
G1 X130.514 Y154.862 E26.79726
G1 X130.594 Y154.693 E26.80659
G1 X131.506 Y153.783 E26.87087
G1 X130.609 Y152.88 E26.93437
G1 X130.504 Y152.67 E26.94608
G1 X130.496 Y152.392 E26.95996
G1 X130.625 Y152.125 E26.97475
G1 X131.507 Y151.243 E27.03698
G1 X130.589 Y150.327 E27.10168
G1 X130.507 Y150.137 E27.112
G1 X130.509 Y149.799 E27.12887
G1 X130.595 Y149.611 E27.13918
G1 X131.506 Y148.703 E27.20335
G1 X130.624 Y147.818 E27.26569
G1 X130.502 Y147.578 E27.27912
G1 X130.492 Y147.331 E27.29145
G1 X130.588 Y147.078 E27.30495
G1 X131.506 Y146.163 E27.36962
G1 X130.592 Y145.249 E27.4341
G1 X130.505 Y145.052 E27.44485
G1 X130.493 Y144.788 E27.45803
G1 X130.58 Y144.547 E27.47082
G1 X131.506 Y143.623 E27.53608
G1 X130.66 Y142.777 E27.59577
G1 X130.527 Y142.576 E27.60779
G1 X130.493 Y142.248 E27.62425
G1 X130.58 Y142.007 E27.63703
G1 X131.506 Y141.083 E27.70229
G1 X130.66 Y140.237 E27.76198
G1 X130.527 Y140.036 E27.77401
G1 X130.493 Y139.708 E27.79046
G1 X130.58 Y139.467 E27.80324
G1 X131.506 Y138.543 E27.86851
G1 X130.66 Y137.697 E27.9282
G1 X130.527 Y137.496 E27.94022
G1 X130.493 Y137.168 E27.95667
G1 X130.58 Y136.927 E27.96945
G1 X131.506 Y136.003 E28.03472
G1 X130.66 Y135.157 E28.09441
G1 X130.527 Y134.956 E28.10643
G1 X130.493 Y134.628 E28.12288
G1 X130.58 Y134.387 E28.13567
G1 X131.506 Y133.463 E28.20093
G1 X130.66 Y132.617 E28.26062
G1 X130.527 Y132.416 E28.27265
G1 X130.493 Y132.088 E28.2891
G1 X130.58 Y131.847 E28.30188
G1 X131.506 Y130.923 E28.36714
G1 X130.66 Y130.077 E28.42683
G1 X130.527 Y129.876 E28.43886
G1 X130.493 Y129.548 E28.45531
G1 X130.58 Y129.307 E28.46809
G1 X131.506 Y128.383 E28.53336
G1 X130.66 Y127.537 E28.59305
G1 X130.527 Y127.336 E28.60507
G1 X130.488 Y127.035 E28.62021
G1 X130.577 Y126.768 E28.63425
G1 X131.504 Y125.845 E28.69952
G1 X130.576 Y124.918 E28.76496
G1 X130.488 Y124.674 E28.7779
G1 X130.521 Y124.353 E28.794
G1 X130.656 Y124.147 E28.80629
G1 X131.876 Y122.931 E28.89222
G1 X132.196 Y122.765 E28.91021
G1 X132.404 Y122.765 E28.92058
G1 X132.725 Y122.931 E28.93861
G1 X133.569 Y123.776 E28.9982
G1 X134.416 Y122.931 E29.05789
G1 X134.736 Y122.765 E29.07587
G1 X134.944 Y122.765 E29.08625
G1 X135.265 Y122.931 E29.10428
G1 X136.481 Y124.147 E29.19008
G1 X136.601 Y124.32 E29.20058
G1 X136.65 Y124.486 E29.20921
G1 X136.634 Y124.734 E29.22161
G1 X136.551 Y124.926 E29.23205
G1 X135.635 Y125.844 E29.29675
G1 X136.551 Y126.757 E29.36127
G1 X136.656 Y127.078 E29.37812
G1 X136.634 Y127.277 E29.38811
G1 X136.553 Y127.464 E29.39828
G1 X135.634 Y128.383 E29.46312
G1 X136.558 Y129.305 E29.52824
G1 X136.649 Y129.559 E29.5417
G1 X136.638 Y129.802 E29.55384
G1 X136.551 Y130.007 E29.56495
G1 X135.635 Y130.922 E29.62954
G1 X136.564 Y131.851 E29.69509
G1 X136.652 Y132.115 E29.70897
G1 X136.651 Y132.281 E29.71725
G1 X136.537 Y132.551 E29.73187
G1 X135.636 Y133.464 E29.79587
G1 X136.527 Y134.359 E29.85887
G1 X136.599 Y134.475 E29.86569
G1 X136.656 Y134.755 E29.87994
G1 X136.631 Y134.903 E29.88743
G1 X136.529 Y135.103 E29.89863
G1 X135.634 Y136.003 E29.96195
G1 X136.529 Y136.901 E30.02521
G1 X136.651 Y137.192 E30.04095
G1 X136.601 Y137.525 E30.05775
G1 X136.479 Y137.698 E30.06831
G1 X135.634 Y138.543 E30.12793
G1 X136.547 Y139.454 E30.19228
G1 X136.637 Y139.66 E30.20349
G1 X136.651 Y139.897 E30.21534
G1 X136.605 Y140.056 E30.22359
G1 X136.479 Y140.238 E30.23464
G1 X135.634 Y141.083 E30.29426
G1 X136.55 Y141.996 E30.35878
G1 X136.634 Y142.187 E30.36919
G1 X136.644 Y142.476 E30.38362
G1 X136.551 Y142.706 E30.39599
G1 X135.634 Y143.623 E30.46069
G1 X136.55 Y144.537 E30.52525
G1 X136.64 Y144.75 E30.53679
G1 X136.646 Y145.006 E30.54956
G1 X136.551 Y145.246 E30.56244
G1 X135.634 Y146.163 E30.62714
G1 X136.545 Y147.071 E30.69131
G1 X136.656 Y147.406 E30.70892
G1 X136.605 Y147.675 E30.72258
G1 X136.479 Y147.858 E30.73366
G1 X135.634 Y148.703 E30.79328
G1 X136.55 Y149.616 E30.8578
G1 X136.634 Y149.807 E30.86821
G1 X136.646 Y150.086 E30.88215
G1 X136.551 Y150.326 E30.89502
G1 X135.634 Y151.243 E30.95972
G1 X136.548 Y152.155 E31.02414
G1 X136.639 Y152.366 E31.0356
G1 X136.647 Y152.62 E31.04828
G1 X136.554 Y152.863 E31.06126
G1 X135.634 Y153.783 E31.12617
G1 X136.548 Y154.695 E31.19059
G1 X136.656 Y155.022 E31.20777
G1 X136.625 Y155.246 E31.21905
G1 X136.479 Y155.478 E31.23273
G1 X135.634 Y156.323 E31.29235
G1 X136.555 Y157.242 E31.35726
G1 X136.649 Y157.496 E31.37077
G1 X136.634 Y157.757 E31.38382
G1 X136.55 Y157.947 E31.39418
G1 X135.634 Y158.863 E31.45881
G1 X136.55 Y159.776 E31.52333
G1 X136.634 Y159.967 E31.53374
G1 X136.656 Y160.164 E31.54363
G1 X136.597 Y160.394 E31.55548
G1 X136.479 Y160.558 E31.56556
G1 X135.634 Y161.403 E31.62518
G1 X136.54 Y162.306 E31.68899
G1 X136.65 Y162.581 E31.70377
G1 X136.647 Y162.782 E31.7138
G1 X136.526 Y163.047 E31.72833
G1 X135.254 Y164.324 E31.81826
G1 X134.986 Y164.47 E31.83348
G1 F1500 E25.33348
G0 F9000 X135.334 Y164.499
G0 X138.096 Y166.981
G0 X139.901 Y169.924
G1 F1500 E31.83348
G1 F2400 X139.407 Y169.86 E31.85833
G1 X138.947 Y169.668 E31.8832
G1 X138.554 Y169.368 E31.90787
G1 X138.249 Y168.978 E31.93257
G1 X138.056 Y168.515 E31.9576
G1 X138 Y168.034 E31.98175
G1 X138.061 Y167.513 E32.00792
G1 X138.252 Y167.071 E32.03195
G1 X138.555 Y166.679 E32.05667
G1 X138.931 Y166.385 E32.08048
G1 X139.413 Y166.187 E32.10647
G1 X139.883 Y166.12 E32.13016
G1 X140.388 Y166.185 E32.15556
G1 X140.857 Y166.378 E32.18086
G1 X141.258 Y166.697 E32.20643
G1 X141.547 Y167.066 E32.22981
G1 X141.741 Y167.531 E32.25495
G1 X141.804 Y168.021 E32.2796
G1 X141.738 Y168.524 E32.30491
G1 X141.545 Y168.97 E32.32915
G1 X141.242 Y169.368 E32.35411
G1 X140.849 Y169.668 E32.37877
G1 X140.39 Y169.86 E32.4036
G1 X139.901 Y169.924 E32.4282
G1 F1500 E25.9282
G0 F9000 X139.445 Y169.973
G0 X138.668 Y169.257
G0 X138.391 Y168.897
G0 X138.233 Y168.517
G0 X138.096 Y166.981
G0 X124.92 Y166.981
G0 X125.262 Y151.464
G0 X125.42 Y150.877
G0 X150 Y178.272
G1 F1500 E32.4282
G1 F2400 X174.9 Y178.272 E33.67047
G1 X174.9 Y168.968 E34.13465
G1 F2191.8 X174.83 Y168.459 E34.16271
G1 X174.501 Y169.037 E34.19905
G1 F2400 X174.246 Y169.372 E34.22005
G1 X173.851 Y169.672 E34.2448
G1 X173.392 Y169.864 E34.26962
G1 X172.902 Y169.929 E34.29428
G1 X172.406 Y169.866 E34.31922
G1 X171.947 Y169.668 E34.34416
G1 X171.554 Y169.368 E34.36883
G1 X171.248 Y168.977 E34.3936
G1 X171.055 Y168.506 E34.419
G1 X170.996 Y168.031 E34.44288
G1 X171.055 Y167.537 E34.4677
G1 X171.246 Y167.073 E34.49273
G1 X171.558 Y166.672 E34.51808
G1 X171.94 Y166.384 E34.54195
G1 X172.405 Y166.182 E34.56724
G1 X172.902 Y166.119 E34.59223
G1 X173.391 Y166.184 E34.61684
G1 X173.851 Y166.376 E34.64171
G1 X174.24 Y166.672 E34.6661
G1 X174.498 Y167.004 E34.68708
G1 F2296.7 X174.839 Y167.602 E34.72297
G1 X174.9 Y167.076 E34.75057
G1 F2400 X174.9 Y151.62 E35.52168
G1 F2291.2 X174.832 Y151.124 E35.54784
G1 X174.498 Y151.692 E35.58227
G1 F2400 X174.242 Y152.022 E35.60311
G1 X173.854 Y152.323 E35.62761
G1 X173.388 Y152.518 E35.65281
G1 X172.9 Y152.577 E35.67734
G1 X172.404 Y152.517 E35.70226
G1 X171.938 Y152.314 E35.72762
G1 X171.558 Y152.024 E35.75147
G1 X171.249 Y151.629 E35.77649
G1 X171.053 Y151.156 E35.80203
G1 X170.996 Y150.667 E35.82659
G1 X171.055 Y150.189 E35.85062
G1 X171.246 Y149.733 E35.87529
G1 X171.552 Y149.334 E35.90037
G1 X171.953 Y149.025 E35.92563
G1 X172.404 Y148.83 E35.95014
G1 X172.903 Y148.767 E35.97524
G1 X173.391 Y148.832 E35.9998
