;FLAVOR:Marlin
;TIME:7447
;Filament used: 2.98764m
;Layer height: 0.15
;MINX:123.835
;MINY:120.46
;MINZ:0.3
;MAXX:176.165
;MAXY:178.672
;MAXZ:6.45
;TARGET_MACHINE.NAME:Anet A8 Plus
;Generated with Cura_SteamEngine 5.8.1
M140 S60
M105
M190 S60
M104 S200
M105
M109 S200
M82 ;absolute extrusion mode
G28 ;Home
G1 Z15.0 F2000 ;Move the platform
G92 E0
G92 E0
G1 F1500 E-6.5
;LAYER_COUNT:42
;LAYER:0
M107
M204 S1000
;MESH:BIOPH-Enclosure-FrontSide.stl
G0 F9000 X133.569 Y126.24 Z0.3
;TYPE:WALL-INNER
G1 F1500 E0
G1 F1717.4 X133.965 Y125.845 E0.039
G1 X133.569 Y125.448 E0.07809
G1 X133.174 Y125.845 E0.11714
G1 X133.569 Y126.24 E0.15609
G1 F1500 E-6.34391
G0 F9000 X133.57 Y125.972
G0 X133.57 Y126.617
G0 X133.57 Y127.613
G0 X133.57 Y128.512
G0 X133.569 Y128.778
G1 F1500 E0.15609
G1 F1714.3 X133.965 Y128.383 E0.19515
G1 X133.569 Y127.987 E0.23427
G1 X133.174 Y128.383 E0.27333
G1 X133.569 Y128.778 E0.31235
G1 F1500 E-6.18765
G0 F9000 X133.57 Y128.512
G0 X133.57 Y129.157
G0 X133.57 Y130.153
G0 X133.569 Y131.05
G0 X133.568 Y131.318
G1 F1500 E0.31235
G1 F1714.3 X133.964 Y130.923 E0.35142
G1 X133.568 Y130.527 E0.39053
G1 X133.173 Y130.923 E0.4296
G1 X133.568 Y131.318 E0.46862
G1 F1500 E-6.03138
G0 F9000 X133.569 Y131.05
G0 X133.569 Y131.695
G0 X133.569 Y132.695
G0 X133.571 Y133.591
G0 X133.568 Y133.859
G1 F1500 E0.46862
G1 F1714.3 X133.964 Y133.464 E0.50768
G1 X133.568 Y133.068 E0.5468
G1 X133.173 Y133.464 E0.58587
G1 X133.568 Y133.859 E0.62488
G1 F1500 E-5.87512
G0 F9000 X133.571 Y133.591
G0 X133.57 Y134.237
G0 X133.57 Y135.234
G0 X133.569 Y136.131
G0 X133.569 Y136.399
G1 F1500 E0.62488
G1 F1714.3 X133.965 Y136.004 E0.66395
G1 X133.569 Y135.609 E0.70302
G1 X133.174 Y136.004 E0.74203
G1 X133.569 Y136.399 E0.78105
G1 F1500 E-5.71895
G0 F9000 X133.569 Y136.131
G0 X133.57 Y136.777
G0 X133.57 Y137.773
G0 X133.57 Y138.672
G0 X133.569 Y138.938
G1 F1500 E0.78105
G1 F1714.3 X133.965 Y138.543 E0.82012
G1 X133.569 Y138.147 E0.85923
G1 X133.174 Y138.543 E0.8983
G1 X133.569 Y138.938 E0.93732
G1 F1500 E-5.56268
G0 F9000 X133.57 Y138.672
G0 X133.57 Y139.317
G0 X133.57 Y140.313
G0 X133.57 Y141.212
G0 X133.569 Y141.478
G1 F1500 E0.93732
G1 F1714.3 X133.965 Y141.083 E0.97638
G1 X133.569 Y140.687 E1.0155
G1 X133.174 Y141.083 E1.05457
G1 X133.569 Y141.478 E1.09358
G1 F1500 E-5.40642
G0 F9000 X133.57 Y141.212
G0 X133.57 Y141.857
G0 X133.57 Y142.853
G0 X133.571 Y143.751
G0 X133.568 Y144.019
G1 F1500 E1.09358
G1 F1714.3 X133.964 Y143.624 E1.13265
G1 X133.568 Y143.228 E1.17177
G1 X133.173 Y143.624 E1.21083
G1 X133.568 Y144.019 E1.24985
G1 F1500 E-5.25015
G0 F9000 X133.571 Y143.751
G0 X133.57 Y144.397
G0 X133.57 Y145.394
G0 X133.57 Y146.291
G0 X133.569 Y146.559
G1 F1500 E1.24985
G1 F1714.3 X133.965 Y146.164 E1.28892
G1 X133.569 Y145.769 E1.32798
G1 X133.174 Y146.164 E1.367
G1 X133.569 Y146.559 E1.40602
G1 F1500 E-5.09398
G0 F9000 X133.57 Y146.291
G0 X133.57 Y146.937
G0 X133.57 Y147.934
G0 X133.57 Y148.831
G0 X133.569 Y149.098
G1 F1500 E1.40602
G1 F1714.3 X133.965 Y148.703 E1.44508
G1 X133.569 Y148.307 E1.4842
G1 X133.174 Y148.703 E1.52327
G1 X133.569 Y149.098 E1.56228
G1 F1500 E-4.93772
G0 F9000 X133.57 Y148.831
G0 X133.57 Y149.477
G0 X133.57 Y150.474
G0 X133.57 Y151.371
G0 X133.569 Y151.638
G1 F1500 E1.56228
G1 F1714.3 X133.965 Y151.243 E1.60135
G1 X133.569 Y150.847 E1.64047
G1 X133.174 Y151.243 E1.67953
G1 X133.569 Y151.638 E1.71855
G1 F1500 E-4.78145
G0 F9000 X133.57 Y151.371
G0 X133.57 Y152.017
G0 X133.57 Y153.014
G0 X133.57 Y153.911
G0 X133.569 Y154.178
G1 F1500 E1.71855
G1 F1714.3 X133.965 Y153.783 E1.75762
G1 X133.569 Y153.387 E1.79673
G1 X133.174 Y153.783 E1.8358
G1 X133.569 Y154.178 E1.87482
G1 F1500 E-4.62518
G0 F9000 X133.57 Y153.911
G0 X133.57 Y154.557
G0 X133.57 Y155.554
G0 X133.57 Y156.451
G0 X133.569 Y156.718
G1 F1500 E1.87482
G1 F1714.3 X133.965 Y156.323 E1.91388
G1 X133.569 Y155.927 E1.953
G1 X133.174 Y156.323 E1.99207
G1 X133.569 Y156.718 E2.03108
G1 F1500 E-4.46892
G0 F9000 X133.57 Y156.451
G0 X133.57 Y157.097
G0 X133.57 Y158.094
G0 X133.57 Y158.991
G0 X133.569 Y159.258
G1 F1500 E2.03108
G1 F1714.3 X133.965 Y158.863 E2.07015
G1 X133.569 Y158.467 E2.10926
G1 X133.174 Y158.863 E2.14833
G1 X133.569 Y159.258 E2.18735
G1 F1500 E-4.31265
G0 F9000 X133.57 Y158.991
G0 X133.57 Y159.637
G0 X133.57 Y160.634
G0 X133.57 Y161.531
G0 X133.569 Y161.798
G1 F1500 E2.18735
G1 F1714.3 X133.965 Y161.403 E2.22641
G1 X133.569 Y161.007 E2.26553
G1 X133.174 Y161.403 E2.3046
G1 X133.569 Y161.798 E2.34361
G1 F1500 E-4.15639
G0 F9000 X133.57 Y161.531
G0 X133.57 Y162.177
G0 X133.57 Y163.154
G0 X134.982 Y164.44
G1 F1500 E2.34361
G1 F2400 X134.707 Y164.442 E2.35733
G1 X134.473 Y164.338 E2.37011
G1 X133.569 Y163.434 E2.43389
G1 X132.669 Y164.337 E2.4975
G1 X132.378 Y164.452 E2.51311
G1 X132.117 Y164.428 E2.52618
G1 X131.927 Y164.333 E2.53678
G1 X130.623 Y163.029 E2.62879
G1 X130.524 Y162.776 E2.64234
G1 X130.524 Y162.568 E2.65272
G1 X130.61 Y162.328 E2.66544
G1 X131.538 Y161.403 E2.73081
G1 X130.61 Y160.475 E2.79628
G1 X130.524 Y160.236 E2.80895
G1 X130.524 Y160.028 E2.81933
G1 X130.61 Y159.788 E2.83205
G1 X131.538 Y158.863 E2.89742
G1 X130.61 Y157.935 E2.9629
G1 X130.524 Y157.696 E2.97557
G1 X130.524 Y157.488 E2.98595
G1 X130.61 Y157.248 E2.99866
G1 X131.538 Y156.323 E3.06403
G1 X130.61 Y155.395 E3.12951
G1 X130.524 Y155.156 E3.14218
G1 X130.544 Y154.868 E3.15659
G1 X130.64 Y154.685 E3.1669
G1 X131.538 Y153.783 E3.2304
G1 X130.64 Y152.879 E3.29397
G1 X130.517 Y152.558 E3.31112
G1 X130.527 Y152.397 E3.31916
G1 X130.652 Y152.13 E3.33387
G1 X131.538 Y151.243 E3.39642
G1 X130.62 Y150.326 E3.46115
G1 X130.54 Y150.143 E3.47112
G1 X130.541 Y149.798 E3.48833
G1 X130.627 Y149.611 E3.4986
G1 X131.538 Y148.703 E3.56277
G1 X130.651 Y147.812 E3.62549
G1 X130.532 Y147.572 E3.63886
G1 X130.525 Y147.326 E3.65114
G1 X130.57 Y147.181 E3.65871
G1 X130.692 Y147.007 E3.66931
G1 X131.538 Y146.163 E3.72893
G1 X130.624 Y145.249 E3.79342
G1 X130.536 Y145.049 E3.80432
G1 X130.524 Y144.788 E3.81736
G1 X130.61 Y144.548 E3.83007
G1 X131.538 Y143.623 E3.89544
G1 X130.61 Y142.695 E3.96092
G1 X130.524 Y142.456 E3.97359
G1 X130.524 Y142.248 E3.98397
G1 X130.61 Y142.008 E3.99669
G1 X131.538 Y141.083 E4.06206
G1 X130.61 Y140.155 E4.12753
G1 X130.524 Y139.916 E4.14021
G1 X130.524 Y139.708 E4.15058
G1 X130.61 Y139.468 E4.1633
G1 X131.538 Y138.543 E4.22867
G1 X130.61 Y137.615 E4.29415
G1 X130.524 Y137.376 E4.30682
G1 X130.524 Y137.168 E4.3172
G1 X130.61 Y136.928 E4.32992
G1 X131.538 Y136.003 E4.39529
G1 X130.61 Y135.075 E4.46076
G1 X130.524 Y134.836 E4.47343
G1 X130.524 Y134.628 E4.48381
G1 X130.61 Y134.388 E4.49653
G1 X131.538 Y133.463 E4.5619
G1 X130.61 Y132.535 E4.62737
G1 X130.524 Y132.296 E4.64005
G1 X130.524 Y132.088 E4.65042
G1 X130.61 Y131.848 E4.66314
G1 X131.538 Y130.923 E4.72851
G1 X130.61 Y129.995 E4.79399
G1 X130.524 Y129.756 E4.80666
G1 X130.524 Y129.548 E4.81704
G1 X130.61 Y129.308 E4.82976
G1 X131.538 Y128.383 E4.89513
G1 X130.61 Y127.455 E4.9606
G1 X130.524 Y127.216 E4.97327
G1 X130.524 Y127.008 E4.98365
G1 X130.612 Y126.766 E4.9965
G1 X131.537 Y125.845 E5.06162
G1 X130.609 Y124.919 E5.12703
G1 X130.52 Y124.675 E5.13998
G1 X130.552 Y124.355 E5.15603
G1 X130.688 Y124.147 E5.16843
G1 X131.876 Y122.963 E5.25211
G1 X132.196 Y122.796 E5.27011
G1 X132.404 Y122.796 E5.28049
G1 X132.725 Y122.963 E5.29854
G1 X133.57 Y123.809 E5.3582
G1 X134.415 Y122.963 E5.41785
G1 X134.736 Y122.796 E5.4359
G1 X134.944 Y122.796 E5.44628
G1 X135.265 Y122.963 E5.46433
G1 X136.449 Y124.147 E5.54787
G1 X136.569 Y124.321 E5.55842
G1 X136.618 Y124.486 E5.567
G1 X136.602 Y124.735 E5.57945
G1 X136.519 Y124.926 E5.58984
G1 X135.602 Y125.845 E5.65461
G1 X136.515 Y126.757 E5.71899
G1 X136.599 Y126.951 E5.72954
G1 X136.616 Y127.186 E5.7413
G1 X136.574 Y127.345 E5.7495
G1 X136.443 Y127.538 E5.76114
G1 X135.601 Y128.383 E5.82065
G1 X136.516 Y129.298 E5.88521
G1 X136.595 Y129.477 E5.89497
G1 X136.603 Y129.796 E5.91089
G1 X136.463 Y130.058 E5.92571
G1 X135.602 Y130.921 E5.98653
G1 X136.532 Y131.851 E6.05215
G1 X136.619 Y132.113 E6.06592
G1 X136.619 Y132.279 E6.0742
G1 X136.508 Y132.548 E6.08872
G1 X135.603 Y133.465 E6.153
G1 X136.495 Y134.365 E6.21622
G1 X136.565 Y134.48 E6.22293
G1 X136.62 Y134.759 E6.23712
G1 X136.594 Y134.907 E6.24462
G1 X136.494 Y135.101 E6.2555
G1 X135.601 Y136.003 E6.31883
G1 X136.51 Y136.912 E6.38296
G1 X136.598 Y137.109 E6.39373
G1 X136.617 Y137.335 E6.40504
G1 X136.565 Y137.525 E6.41487
G1 X136.443 Y137.698 E6.42543
G1 X135.601 Y138.543 E6.48495
G1 X136.509 Y139.451 E6.54901
G1 X136.595 Y139.638 E6.55928
G1 X136.62 Y139.842 E6.56953
G1 X136.514 Y140.167 E6.58659
G1 X135.602 Y141.082 E6.65104
G1 X136.515 Y141.994 E6.71542
G1 X136.624 Y142.316 E6.73238
G1 X136.591 Y142.551 E6.74422
G1 X136.449 Y142.777 E6.75754
G1 X135.602 Y143.624 E6.8173
G1 X136.514 Y144.537 E6.88168
G1 X136.598 Y144.727 E6.89204
G1 X136.61 Y145.006 E6.90598
G1 X136.517 Y145.244 E6.91872
G1 X135.601 Y146.163 E6.98346
G1 X136.514 Y147.076 E7.04788
G1 X136.62 Y147.406 E7.06517
G1 X136.588 Y147.629 E7.07641
G1 X136.511 Y147.79 E7.08531
G1 X135.601 Y148.703 E7.14962
G1 X136.517 Y149.619 E7.21425
G1 X136.611 Y149.862 E7.22725
G1 X136.603 Y150.118 E7.24003
G1 X136.515 Y150.326 E7.2513
G1 X135.601 Y151.243 E7.31589
G1 X136.517 Y152.159 E7.38052
G1 X136.615 Y152.427 E7.39475
G1 X136.611 Y152.62 E7.40439
G1 X136.518 Y152.862 E7.41732
G1 X135.601 Y153.783 E7.48216
G1 X136.511 Y154.693 E7.54637
G1 X136.588 Y154.858 E7.55545
G1 X136.613 Y155.149 E7.57002
G1 X136.519 Y155.402 E7.58349
G1 X135.601 Y156.323 E7.64836
G1 X136.518 Y157.24 E7.71306
G1 X136.613 Y157.495 E7.72664
G1 X136.608 Y157.716 E7.73767
G1 X136.517 Y157.944 E7.74991
G1 X135.601 Y158.863 E7.81465
G1 X136.515 Y159.777 E7.87914
G1 X136.604 Y159.99 E7.89065
G1 X136.616 Y160.209 E7.9016
G1 X136.507 Y160.494 E7.91682
G1 X135.601 Y161.403 E7.98085
G1 X136.445 Y162.247 E8.0404
G1 X136.609 Y162.553 E8.05772
G1 X136.612 Y162.776 E8.06884
G1 X136.494 Y163.041 E8.08332
G1 X135.251 Y164.294 E8.17137
G1 X134.982 Y164.44 E8.18664
G1 F1500 E1.68664
G0 F9000 X135.368 Y164.429
G0 X138.11 Y166.948
G0 X139.901 Y169.924
G1 F1500 E8.18664
G1 F2400 X139.407 Y169.86 E8.21149
G1 X138.947 Y169.668 E8.23636
G1 X138.554 Y169.368 E8.26103
G1 X138.249 Y168.978 E8.28573
G1 X138.056 Y168.515 E8.31075
G1 X138 Y168.034 E8.33491
G1 X138.061 Y167.513 E8.36108
G1 X138.252 Y167.071 E8.3851
G1 X138.554 Y166.68 E8.40975
G1 X138.951 Y166.378 E8.43464
G1 X139.41 Y166.181 E8.45956
G1 X139.911 Y166.124 E8.48471
G1 X140.382 Y166.182 E8.50839
G1 X140.857 Y166.379 E8.53405
G1 X141.247 Y166.681 E8.55865
G1 X141.547 Y167.066 E8.58301
G1 X141.741 Y167.531 E8.60814
G1 X141.804 Y168.021 E8.63279
G1 X141.738 Y168.524 E8.6581
G1 X141.545 Y168.97 E8.68234
G1 X141.242 Y169.368 E8.7073
G1 X140.849 Y169.668 E8.73197
G1 X140.39 Y169.86 E8.75679
G1 X139.901 Y169.924 E8.78139
G1 F1500 E2.28139
G0 F9000 X139.445 Y169.973
G0 X138.668 Y169.257
G0 X138.391 Y168.897
G0 X138.233 Y168.517
G0 X138.11 Y166.948
G0 X124.92 Y166.948
G0 X125.262 Y151.464
G0 X125.42 Y150.877
G0 X150 Y178.272
G1 F1500 E8.78139
G1 F2400 X174.9 Y178.272 E10.02366
G1 X174.9 Y168.968 E10.48784
G1 F2191.8 X174.83 Y168.459 E10.51591
G1 X174.501 Y169.037 E10.55224
G1 F2400 X174.246 Y169.372 E10.57324
G1 X173.851 Y169.672 E10.59799
G1 X173.392 Y169.864 E10.62281
G1 X172.902 Y169.929 E10.64747
G1 X172.406 Y169.866 E10.67242
G1 X171.947 Y169.668 E10.69736
G1 X171.554 Y169.368 E10.72202
G1 X171.248 Y168.977 E10.74679
G1 X171.055 Y168.506 E10.77219
G1 X170.996 Y168.031 E10.79607
G1 X171.055 Y167.537 E10.82089
G1 X171.246 Y167.073 E10.84592
G1 X171.558 Y166.672 E10.87127
G1 X171.94 Y166.384 E10.89514
G1 X172.405 Y166.182 E10.92043
G1 X172.902 Y166.119 E10.94543
G1 X173.391 Y166.184 E10.97004
G1 X173.851 Y166.376 E10.9949
G1 X174.24 Y166.672 E11.01929
G1 X174.498 Y167.004 E11.04027
G1 F2296.7 X174.839 Y167.602 E11.07616
G1 X174.9 Y167.076 E11.10376
G1 F2400 X174.9 Y151.62 E11.87487
G1 F2291.2 X174.832 Y151.124 E11.90103
G1 X174.498 Y151.692 E11.93547
G1 F2400 X174.242 Y152.022 E11.9563
G1 X173.854 Y152.323 E11.9808
G1 X173.388 Y152.518 E12.006
G1 X172.9 Y152.577 E12.03053
G1 X172.404 Y152.517 E12.05545
G1 X171.938 Y152.314 E12.08081
G1 X171.558 Y152.024 E12.10466
G1 X171.249 Y151.629 E12.12968
G1 X171.052 Y151.155 E12.15529
G1 X170.996 Y150.667 E12.1798
G1 X171.055 Y150.189 E12.20383
G1 X171.258 Y149.707 E12.22992
G1 X171.552 Y149.334 E12.25361
G1 X171.954 Y149.024 E12.27894
G1 X172.407 Y148.83 E12.30353
G1 X172.902 Y148.767 E12.32842
G1 X173.391 Y148.832 E12.35303
G1 X173.854 Y149.025 E12.37806
G1 X174.242 Y149.326 E12.40256
G1 X174.498 Y149.656 E12.42339
G1 F2296.7 X174.839 Y150.254 E12.45928
G1 X174.9 Y149.728 E12.48689
G1 F2400 X174.9 Y133.82 E13.28054
G1 F2291.2 X174.832 Y133.324 E13.30671
G1 X174.498 Y133.892 E13.34114
G1 F2400 X174.242 Y134.222 E13.36198
G1 X173.854 Y134.523 E13.38648
G1 X173.388 Y134.718 E13.41168
G1 X172.897 Y134.777 E13.43635
G1 X172.417 Y134.714 E13.46051
G1 X171.944 Y134.525 E13.48592
G1 X171.548 Y134.216 E13.51098
G1 X171.246 Y133.823 E13.5357
G1 X171.055 Y133.365 E13.56046
G1 X170.995 Y132.872 E13.58524
G1 X171.054 Y132.384 E13.60976
G1 X171.248 Y131.92 E13.63485
G1 X171.56 Y131.521 E13.66012
G1 X171.949 Y131.227 E13.68445
G1 X172.387 Y131.038 E13.70825
G1 X172.899 Y130.966 E13.73404
G1 X173.391 Y131.032 E13.75881
G1 X173.854 Y131.225 E13.78384
G1 X174.242 Y131.526 E13.80833
G1 X174.498 Y131.856 E13.82917
G1 F2296.7 X174.839 Y132.454 E13.86506
G1 X174.9 Y131.928 E13.89267
G1 F2400 X174.9 Y121.724 E14.40175
G1 X125.1 Y121.724 E16.88628
G1 X125.101 Y149.377 E18.26589
G1 F2280.3 X125.121 Y149.719 E18.28388
G1 F1991.7 X125.161 Y149.979 E18.2997
G1 F1875 X125.15 Y150.424 E18.32812
G1 F1867.7 X125.163 Y150.916 E18.35968
G1 F1943.3 X125.13 Y151.125 E18.37271
G1 F2232.6 X125.101 Y151.467 E18.39112
G1 F2400 X125.101 Y178.271 E19.72838
G1 X150 Y178.272 E20.97059
G1 F1500 E14.47059
G0 F9000 X125.551 Y150.922
G0 X125.365 Y150.521
G0 X125.262 Y151.464
G0 X125.273 Y178.099
G0 X174.728 Y178.1
G0 X174.712 Y169.068
G0 X172.903 Y170.092
G0 X171.111 Y169.051
G0 X171.05 Y167.128
G0 X172.028 Y166.516
G0 X172.45 Y166.341
G0 X172.9 Y166.282
G0 X173.35 Y166.341
G0 X173.772 Y166.516
G0 X174.132 Y166.793
G0 X174.409 Y167.153
G0 X174.823 Y168.472
G1 F1500 E20.97059
G1 F1821.6 X174.85 Y168.024 E21.00009
G1 F1828.6 X174.825 Y167.6 E21.02791
G0 F9000 X174.8 Y166.835
G0 X174.823 Y151.124
G1 F1821.6 X174.85 Y150.672 E21.05767
G1 F1828.6 X174.825 Y150.251 E21.08529
G1 F1500 E14.58529
G0 F9000 X174.132 Y149.443
G0 X173.772 Y149.166
G0 X173.35 Y148.991
G0 X172.9 Y148.932
G0 X172.45 Y148.991
G0 X171.843 Y148.857
G0 X166.31 Y141.632
G0 X165.899 Y141.594
G1 F1500 E21.08529
G1 F2400 X165.708 Y141.582 E21.09483
G1 X165.452 Y141.455 E21.10909
G1 X164.15 Y140.155 E21.20088
G1 X164.061 Y139.896 E21.21455
G1 X164.072 Y139.67 E21.22583
G1 X164.163 Y139.455 E21.23748
G1 X165.075 Y138.543 E21.30183
G1 X164.162 Y137.628 E21.36632
G1 X164.072 Y137.414 E21.3779
G1 X164.066 Y137.158 E21.39067
G1 X164.161 Y136.917 E21.4036
G1 X165.075 Y136.003 E21.46809
G1 X164.161 Y135.086 E21.53268
G1 X164.064 Y134.835 E21.5461
G1 X164.07 Y134.602 E21.55773
G1 X164.163 Y134.375 E21.56997
G1 X165.077 Y133.462 E21.63442
G1 X164.165 Y132.551 E21.69874
G1 X164.074 Y132.34 E21.7102
G1 X164.062 Y132.101 E21.72214
G1 X164.113 Y131.934 E21.73085
G1 X164.232 Y131.767 E21.74108
G1 X165.078 Y130.923 E21.8007
G1 X164.232 Y130.077 E21.86039
G1 X164.071 Y129.788 E21.87689
G1 X164.074 Y129.502 E21.89116
G1 X164.165 Y129.294 E21.90249
G1 X165.078 Y128.383 E21.96684
G1 X164.164 Y127.469 E22.03132
G1 X164.074 Y127.262 E22.04259
G1 X164.078 Y126.95 E22.05815
G1 X164.162 Y126.756 E22.0687
G1 X165.075 Y125.843 E22.13312
G1 X164.162 Y124.928 E22.1976
G1 X164.078 Y124.734 E22.20815
G1 X164.062 Y124.485 E22.2206
G1 X164.111 Y124.32 E22.22919
G1 X164.232 Y124.147 E22.23972
G1 X165.416 Y122.966 E22.32315
G1 X165.736 Y122.8 E22.34114
G1 X165.944 Y122.8 E22.35151
G1 X166.265 Y122.967 E22.36957
G1 X167.109 Y123.811 E22.42911
G1 X167.956 Y122.966 E22.4888
G1 X168.276 Y122.8 E22.50679
G1 X168.484 Y122.8 E22.51717
