;FLAVOR:Marlin
;TIME:5059
;Filament used: 3.04903m
;Layer height: 0.15
;MINX:117.65
;MINY:129.093
;MINZ:0.3
;MAXX:182.35
;MAXY:171.235
;MAXZ:13.95
;TARGET_MACHINE.NAME:Anet A8 Plus
;Generated with Cura_SteamEngine 5.8.1
M140 S60
M105
M190 S60
M104 S190
M105
M109 S190
M82 ;absolute extrusion mode
G28 ;Home
G1 Z15.0 F2000 ;Move the platform
G92 E0
G92 E0
G1 F1500 E-6.5
;LAYER_COUNT:92
;LAYER:0
M107
M204 S1000
G0 F9000 X118.785 Y130.088 Z0.3
;TYPE:SKIRT
G1 F1500 E0
G1 F1800 X119.228 Y129.731 E0.02838
G1 X119.721 Y129.448 E0.05674
G1 X120.192 Y129.264 E0.08197
G1 X120.799 Y129.132 E0.11296
G1 X121.158 Y129.103 E0.13093
G1 X121.49 Y129.094 E0.1475
G1 X133.598 Y129.093 E0.75157
G1 X134.338 Y129.105 E0.7885
G1 X134.717 Y129.133 E0.80746
G1 X135.608 Y129.247 E0.85227
G1 X136.542 Y129.381 E0.89935
G1 X139.211 Y129.686 E1.03337
G1 X141.927 Y129.92 E1.16937
G1 X144.649 Y130.075 E1.30539
G1 X147.403 Y130.156 E1.44285
G1 X150.098 Y130.158 E1.57731
G1 X152.851 Y130.082 E1.71471
G1 X155.544 Y129.933 E1.84927
G1 X158.283 Y129.703 E1.9864
G1 X161.008 Y129.395 E2.12321
G1 X162.911 Y129.134 E2.21904
G1 X163.29 Y129.104 E2.23801
G1 X163.774 Y129.093 E2.26216
G1 X178.089 Y129.093 E2.97634
G1 X178.787 Y129.102 E3.01117
G1 X179.385 Y129.161 E3.04115
G1 X179.935 Y129.307 E3.06954
G1 X180.455 Y129.538 E3.09792
G1 X180.931 Y129.846 E3.12621
G1 X181.354 Y130.227 E3.15461
G1 X181.711 Y130.67 E3.183
G1 X181.994 Y131.162 E3.21131
G1 X182.196 Y131.694 E3.2397
G1 X182.311 Y132.24 E3.26754
G1 X182.34 Y132.601 E3.28561
G1 X182.349 Y132.933 E3.30218
G1 X182.35 Y156.258 E4.46587
G1 X182.34 Y156.979 E4.50184
G1 X182.248 Y157.74 E4.54008
G1 X181.541 Y160.797 E4.69662
G1 X180.997 Y163.512 E4.83477
G1 X180.528 Y166.265 E4.9741
G1 X180.363 Y167.314 E5.02707
G1 X180.22 Y167.888 E5.05659
G1 X180.094 Y168.257 E5.07604
G1 X179.849 Y168.812 E5.10631
G1 X179.496 Y169.345 E5.1382
G1 X179.233 Y169.671 E5.1591
G1 X178.839 Y170.083 E5.18754
G1 X178.377 Y170.435 E5.21652
G1 X178.091 Y170.615 E5.23338
G1 X177.612 Y170.868 E5.2604
G1 X176.88 Y171.093 E5.29861
G1 X176.554 Y171.157 E5.31518
G1 X175.979 Y171.222 E5.34405
G1 X175.626 Y171.232 E5.36167
G1 X173.741 Y171.235 E5.45571
G1 X172.873 Y171.217 E5.49903
G1 X171.919 Y171.15 E5.54674
G1 X170.874 Y171.061 E5.59906
G1 X168.181 Y170.911 E5.73363
G1 X165.432 Y170.836 E5.87083
G1 X162.736 Y170.838 E6.00533
G1 X159.981 Y170.919 E6.14284
G1 X157.26 Y171.075 E6.27881
G1 X155.52 Y171.214 E6.3659
G1 X155.133 Y171.23 E6.38522
G1 X153.145 Y171.235 E6.4844
G1 X151.208 Y171.208 E6.58105
G1 X148.472 Y171.208 E6.71755
G1 X147.42 Y171.231 E6.77005
G1 X145.391 Y171.235 E6.87127
G1 X144.523 Y171.217 E6.91459
G1 X143.569 Y171.15 E6.9623
G1 X142.524 Y171.061 E7.01462
G1 X139.831 Y170.911 E7.14919
G1 X137.082 Y170.836 E7.28638
G1 X134.386 Y170.838 E7.42089
G1 X131.631 Y170.919 E7.5584
G1 X128.91 Y171.075 E7.69437
G1 X127.17 Y171.214 E7.78146
G1 X126.783 Y171.23 E7.80078
G1 X124.791 Y171.235 E7.90016
G1 X124.195 Y171.226 E7.9299
G1 X123.815 Y171.198 E7.94891
G1 X123.416 Y171.144 E7.969
G1 X122.921 Y171.037 E7.99426
G1 X122.567 Y170.914 E8.01296
G1 X122.305 Y170.806 E8.0271
G1 X121.802 Y170.549 E8.05528
G1 X121.437 Y170.291 E8.07758
G1 X121.134 Y170.043 E8.09711
G1 X120.732 Y169.652 E8.12509
G1 X120.38 Y169.201 E8.15363
G1 X120.074 Y168.676 E8.18395
G1 X119.879 Y168.199 E8.20966
G1 X119.752 Y167.8 E8.23055
G1 X119.639 Y167.324 E8.25496
G1 X119.334 Y165.393 E8.35249
G1 X118.848 Y162.695 E8.48926
G1 X118.286 Y160.015 E8.62587
G1 X117.748 Y157.72 E8.74348
G1 X117.664 Y157.084 E8.77548
G1 X117.651 Y156.7 E8.79465
G1 X117.65 Y133.319 E9.96113
G1 X117.659 Y132.654 E9.99431
G1 X117.719 Y132.055 E10.02435
G1 X117.865 Y131.507 E10.05264
G1 X118.095 Y130.988 E10.08096
G1 X118.405 Y130.51 E10.10939
G1 X118.785 Y130.088 E10.13772
G0 F9000 X119.039 Y130.397
G1 F1800 X119.43 Y130.076 E10.16296
G1 X119.867 Y129.821 E10.1882
G1 X120.338 Y129.637 E10.21343
G1 X120.832 Y129.531 E10.23863
G1 X121.169 Y129.503 E10.2555
G1 X121.49 Y129.494 E10.27152
G1 X133.592 Y129.493 E10.8753
G1 X134.309 Y129.504 E10.91107
G1 X134.666 Y129.53 E10.92893
G1 X135.551 Y129.643 E10.97344
G1 X136.485 Y129.777 E11.02051
G1 X139.177 Y130.085 E11.1557
G1 X141.893 Y130.318 E11.29169
G1 X144.637 Y130.475 E11.42882
G1 X147.391 Y130.556 E11.56627
G1 X150.109 Y130.558 E11.70188
G1 X152.862 Y130.482 E11.83928
G1 X155.577 Y130.331 E11.97494
G1 X158.316 Y130.101 E12.11207
G1 X161.063 Y129.791 E12.24999
G1 X162.943 Y129.533 E12.34466
G1 X163.299 Y129.504 E12.36248
G1 X163.783 Y129.493 E12.38663
G1 X178.084 Y129.493 E13.10011
G1 X178.782 Y129.502 E13.13494
G1 X179.286 Y129.549 E13.16019
G1 X179.776 Y129.674 E13.18542
G1 X180.24 Y129.875 E13.21065
G1 X180.666 Y130.146 E13.23584
G1 X181.045 Y130.481 E13.26107
G1 X181.366 Y130.872 E13.28631
G1 X181.621 Y131.308 E13.31151
G1 X181.805 Y131.779 E13.33674
G1 X181.912 Y132.273 E13.36196
G1 X181.94 Y132.612 E13.37893
G1 X181.949 Y132.933 E13.39495
G1 X181.95 Y156.252 E14.55834
G1 X181.94 Y156.973 E14.59431
G1 X181.858 Y157.65 E14.62833
G1 X181.151 Y160.707 E14.78487
G1 X180.605 Y163.433 E14.92358
G1 X180.134 Y166.198 E15.06351
G1 X179.975 Y167.218 E15.11501
G1 X179.841 Y167.759 E15.14282
G1 X179.715 Y168.128 E15.16227
G1 X179.515 Y168.592 E15.18748
G1 X179.184 Y169.095 E15.21752
G1 X178.942 Y169.397 E15.23683
G1 X178.596 Y169.765 E15.26203
G1 X178.162 Y170.097 E15.28929
G1 X177.904 Y170.261 E15.30454
G1 X177.457 Y170.497 E15.32976
G1 X176.803 Y170.7 E15.36392
G1 X176.477 Y170.764 E15.3805
G1 X175.967 Y170.822 E15.40611
G1 X175.625 Y170.832 E15.42318
G1 X173.749 Y170.835 E15.51677
G1 X172.901 Y170.818 E15.55909
G1 X171.953 Y170.751 E15.6065
G1 X170.908 Y170.663 E15.65882
G1 X168.192 Y170.511 E15.79453
G1 X165.443 Y170.436 E15.93173
G1 X162.724 Y170.438 E16.06738
G1 X159.969 Y170.519 E16.20489
G1 X157.228 Y170.676 E16.34186
G1 X155.503 Y170.814 E16.4282
G1 X155.132 Y170.83 E16.44673
G1 X153.151 Y170.835 E16.54556
G1 X151.214 Y170.808 E16.64221
G1 X148.463 Y170.808 E16.77945
G1 X147.415 Y170.832 E16.83175
G1 X145.399 Y170.835 E16.93233
G1 X144.551 Y170.818 E16.97465
G1 X143.603 Y170.751 E17.02206
G1 X142.558 Y170.663 E17.07438
G1 X139.842 Y170.511 E17.21009
G1 X137.093 Y170.436 E17.34729
G1 X134.374 Y170.438 E17.48294
G1 X131.619 Y170.519 E17.62045
G1 X128.878 Y170.676 E17.75742
G1 X127.153 Y170.814 E17.84376
G1 X126.782 Y170.83 E17.86229
G1 X124.797 Y170.835 E17.96132
G1 X124.224 Y170.827 E17.98991
G1 X123.844 Y170.799 E18.00892
G1 X123.501 Y170.753 E18.02618
G1 X123.006 Y170.646 E18.05145
G1 X122.718 Y170.544 E18.06669
G1 X122.485 Y170.449 E18.07925
G1 X122.033 Y170.222 E18.10448
G1 X121.668 Y169.964 E18.12678
G1 X121.411 Y169.754 E18.14334
G1 X121.046 Y169.404 E18.16857
G1 X120.726 Y169 E18.19428
G1 X120.42 Y168.475 E18.2246
G1 X120.25 Y168.05 E18.24743
G1 X120.141 Y167.707 E18.26539
G1 X120.034 Y167.259 E18.28837
G1 X119.881 Y166.332 E18.33524
G1 X119.728 Y165.322 E18.38621
G1 X119.241 Y162.624 E18.52299
G1 X118.677 Y159.933 E18.66016
G1 X118.145 Y157.668 E18.77623
G1 X118.061 Y157.032 E18.80824
G1 X118.051 Y156.7 E18.82481
G1 X118.05 Y133.324 E19.99104
G1 X118.059 Y132.659 E20.02422
G1 X118.106 Y132.155 E20.04948
G1 X118.232 Y131.666 E20.07467
G1 X118.433 Y131.202 E20.0999
G1 X118.704 Y130.775 E20.12513
G1 X119.039 Y130.397 E20.15033
G1 F1500 E13.65033
G0 F9000 X134.903 Y132.04
G0 X135.15 Y137.583
G1 F1500 E20.15033
G1 F1800 X135.317 Y137.523 E20.15918
G1 X135.416 Y137.447 E20.16541
G1 X135.432 Y137.393 E20.16822
G1 X162.481 Y137.392 E21.5177
G1 X162.481 Y140.994 E21.6974
G1 X157.696 Y141.009 E21.93613
G1 X157.682 Y141.01 E21.93683
G1 X157.312 Y141.038 E21.95534
G1 X157.295 Y141.04 E21.95619
G1 X156.901 Y141.104 E21.97611
G1 X156.87 Y141.111 E21.97769
G1 X156.517 Y141.229 E21.99626
G1 X156.492 Y141.239 E21.99761
G1 X156.125 Y141.418 E22.01798
G1 X156.097 Y141.435 E22.01961
G1 X155.744 Y141.686 E22.04122
G1 X155.717 Y141.71 E22.04302
G1 X155.38 Y142.057 E22.06716
G1 X155.356 Y142.087 E22.06907
G1 X155.068 Y142.528 E22.09535
G1 X155.05 Y142.561 E22.09723
G1 X154.889 Y142.952 E22.11832
G1 X154.881 Y142.975 E22.11954
G1 X154.798 Y143.28 E22.13531
G1 X154.794 Y143.301 E22.13637
G1 X154.74 Y143.63 E22.15301
G1 X154.737 Y143.65 E22.15402
G1 X154.697 Y144.326 E22.1878
G1 X154.697 Y154.635 E22.70212
G1 X154.645 Y154.652 E22.70485
G1 X154.574 Y154.749 E22.71085
G1 X154.54 Y154.851 E22.71621
G1 X154.496 Y154.913 E22.72
G1 X145.493 Y154.913 E23.16916
G1 X145.433 Y154.745 E23.17806
G1 X145.356 Y154.647 E23.18428
G1 X145.304 Y154.631 E23.187
G1 X145.28 Y144.093 E23.71274
G1 X145.28 Y144.083 E23.71324
G1 X145.266 Y143.804 E23.72718
G1 X145.264 Y143.788 E23.72798
G1 X145.217 Y143.425 E23.74624
G1 X145.214 Y143.405 E23.74725
G1 X145.092 Y142.894 E23.77346
G1 X145.078 Y142.854 E23.77558
G1 X144.903 Y142.487 E23.79586
G1 X144.893 Y142.469 E23.79689
G1 X144.756 Y142.243 E23.81007
G1 X144.743 Y142.224 E23.81122
G1 X144.52 Y141.939 E23.82928
G1 X144.496 Y141.914 E23.83101
G1 X144.154 Y141.604 E23.85403
G1 X144.128 Y141.584 E23.85567
G1 X143.814 Y141.383 E23.87427
G1 X143.791 Y141.37 E23.87559
G1 X143.493 Y141.231 E23.89199
G1 X143.468 Y141.221 E23.89334
G1 X143.143 Y141.119 E23.91033
G1 X143.123 Y141.114 E23.91136
G1 X142.817 Y141.052 E23.92694
G1 X142.8 Y141.049 E23.9278
G1 X142.547 Y141.02 E23.9405
G1 X142.534 Y141.019 E23.94115
G1 X142.196 Y141.002 E23.95804
G1 X142.186 Y141.002 E23.95854
G1 X135.15 Y140.994 E24.30956
G1 X135.15 Y137.583 E24.47974
G0 F9000 X135.55 Y137.843
G1 F1800 X135.637 Y137.793 E24.48475
G1 X162.081 Y137.792 E25.80404
G1 X162.081 Y140.595 E25.94388
G1 X157.695 Y140.609 E26.1627
G1 X157.652 Y140.611 E26.16485
G1 X157.282 Y140.639 E26.18336
G1 X157.231 Y140.645 E26.18593
G1 X156.837 Y140.709 E26.20584
G1 X156.743 Y140.732 E26.21067
G1 X156.39 Y140.85 E26.22924
G1 X156.317 Y140.88 E26.23317
G1 X155.95 Y141.059 E26.25355
G1 X155.865 Y141.109 E26.25847
G1 X155.512 Y141.36 E26.28008
G1 X155.43 Y141.431 E26.28549
G1 X155.093 Y141.778 E26.30962
G1 X155.021 Y141.868 E26.31537
G1 X154.733 Y142.309 E26.34165
G1 X154.68 Y142.409 E26.34729
G1 X154.519 Y142.8 E26.36839
G1 X154.495 Y142.87 E26.37208
G1 X154.412 Y143.175 E26.38785
G1 X154.399 Y143.236 E26.39096
G1 X154.345 Y143.565 E26.4076
G1 X154.338 Y143.627 E26.41071
G1 X154.298 Y144.303 E26.44449
G1 X154.297 Y144.338 E26.44624
G1 X154.297 Y154.467 E26.95158
G1 X154.267 Y154.513 E26.95432
G1 X145.754 Y154.513 E27.37903
G1 X145.703 Y154.426 E27.38407
G1 X145.68 Y144.092 E27.89963
G1 X145.679 Y144.063 E27.90108
G1 X145.665 Y143.784 E27.91502
G1 X145.661 Y143.737 E27.91737
G1 X145.614 Y143.374 E27.93563
G1 X145.603 Y143.312 E27.93877
G1 X145.481 Y142.801 E27.96498
G1 X145.439 Y142.682 E27.97128
G1 X145.264 Y142.315 E27.99156
G1 X145.235 Y142.262 E27.99458
G1 X145.098 Y142.036 E28.00776
G1 X145.058 Y141.977 E28.01132
G1 X144.835 Y141.692 E28.02937
G1 X144.765 Y141.617 E28.03449
G1 X144.423 Y141.307 E28.05752
G1 X144.343 Y141.247 E28.06251
G1 X144.029 Y141.046 E28.08111
G1 X143.96 Y141.007 E28.08506
G1 X143.662 Y140.868 E28.10147
G1 X143.588 Y140.84 E28.10542
G1 X143.263 Y140.738 E28.12241
G1 X143.202 Y140.722 E28.12556
G1 X142.896 Y140.66 E28.14113
G1 X142.845 Y140.652 E28.14371
G1 X142.592 Y140.623 E28.15641
G1 X142.554 Y140.62 E28.15832
G1 X142.216 Y140.603 E28.1752
G1 X142.187 Y140.602 E28.17665
G1 X135.55 Y140.595 E28.50777
G1 X135.55 Y137.843 E28.64507
G0 F9000 X135.95 Y138.193
G1 F1800 X161.681 Y138.192 E29.92879
G1 X161.681 Y140.196 E30.02877
G1 X157.694 Y140.209 E30.22768
G1 X157.622 Y140.212 E30.23128
G1 X157.252 Y140.24 E30.24979
G1 X157.167 Y140.25 E30.25406
G1 X156.773 Y140.314 E30.27398
G1 X156.616 Y140.353 E30.28205
G1 X156.263 Y140.471 E30.30062
G1 X156.142 Y140.52 E30.30713
G1 X155.775 Y140.699 E30.3275
G1 X155.634 Y140.783 E30.33569
G1 X155.281 Y141.034 E30.3573
G1 X155.143 Y141.152 E30.36636
G1 X154.806 Y141.499 E30.39049
G1 X154.686 Y141.649 E30.40007
G1 X154.398 Y142.09 E30.42635
G1 X154.31 Y142.256 E30.43572
G1 X154.149 Y142.647 E30.45682
G1 X154.109 Y142.765 E30.46304
G1 X154.026 Y143.07 E30.47881
G1 X154.004 Y143.171 E30.48396
G1 X153.95 Y143.5 E30.5006
G1 X153.939 Y143.603 E30.50576
G1 X153.899 Y144.279 E30.53955
G1 X153.897 Y144.338 E30.54249
G1 X153.897 Y154.113 E31.03017
G1 X146.102 Y154.113 E31.41907
G1 X146.08 Y144.091 E31.91907
G1 X146.079 Y144.043 E31.92146
G1 X146.065 Y143.764 E31.9354
G1 X146.058 Y143.686 E31.93931
G1 X146.011 Y143.323 E31.95757
G1 X145.992 Y143.219 E31.96284
G1 X145.87 Y142.708 E31.98905
G1 X145.8 Y142.51 E31.99953
G1 X145.625 Y142.143 E32.01981
G1 X145.577 Y142.055 E32.02481
G1 X145.44 Y141.829 E32.038
G1 X145.373 Y141.731 E32.04392
G1 X145.15 Y141.446 E32.06198
G1 X145.034 Y141.321 E32.07048
G1 X144.692 Y141.011 E32.09351
G1 X144.559 Y140.91 E32.10184
G1 X144.245 Y140.709 E32.12045
G1 X144.129 Y140.645 E32.12705
G1 X143.831 Y140.506 E32.14346
G1 X143.707 Y140.458 E32.15009
G1 X143.382 Y140.356 E32.16709
G1 X143.282 Y140.33 E32.17224
G1 X142.976 Y140.268 E32.18782
G1 X142.891 Y140.255 E32.19211
G1 X142.638 Y140.226 E32.20481
G1 X142.574 Y140.22 E32.20802
G1 X142.236 Y140.203 E32.22491
G1 X142.187 Y140.202 E32.22735
G1 X135.95 Y140.195 E32.53852
G1 X135.95 Y138.193 E32.6384
G1 F1500 E26.1384
G0 F9000 X135.485 Y138.193
G0 X134.903 Y132.04
G0 X120.597 Y132.04
G0 X120.597 Y157.466
G0 X125.547 Y164.77
G1 F1500 E32.6384
G1 F1800 X125.64 Y164.845 E32.64436
G1 X125.984 Y164.98 E32.66279
G1 X125.987 Y164.985 E32.66308
G1 X126.044 Y165.017 E32.66635
G1 X126.64 Y165.233 E32.69797
G1 X126.648 Y165.236 E32.6984
G1 X127.288 Y165.436 E32.73185
G1 X127.43 Y165.538 E32.74057
G1 X127.49 Y165.653 E32.74704
G1 X127.679 Y166.623 E32.79635
G1 X127.671 Y166.714 E32.80091
G1 X127.563 Y167.016 E32.81691
G1 X127.368 Y167.252 E32.83218
G1 X127.164 Y167.382 E32.84425
G1 X126.893 Y167.434 E32.85802
G1 X124.188 Y167.435 E32.99297
G1 X124.007 Y167.407 E33.00211
G1 X123.788 Y167.32 E33.01386
G1 X123.582 Y167.151 E33.02716
G1 X123.462 Y166.979 E33.03762
G1 X123.382 Y166.713 E33.05148
G1 X123.377 Y166.569 E33.05867
G1 X123.561 Y165.649 E33.10547
G1 X123.615 Y165.539 E33.11159
G1 X123.774 Y165.401 E33.12209
G1 X124.483 Y165.169 E33.15931
G1 X124.489 Y165.167 E33.15962
G1 X125.062 Y164.96 E33.19002
G1 X125.12 Y164.927 E33.19335
G1 X125.138 Y164.912 E33.19452
G1 X125.388 Y164.852 E33.20734
G1 X125.513 Y164.759 E33.21512
G1 X125.525 Y164.738 E33.21632
G1 X125.547 Y164.77 E33.21826
G0 F9000 X125.482 Y165.241
G1 F1800 X125.515 Y165.226 E33.22007
G1 X125.791 Y165.335 E33.23487
G1 X125.908 Y165.393 E33.24139
G1 X126.504 Y165.609 E33.27302
G1 X126.529 Y165.618 E33.27434
G1 X127.108 Y165.799 E33.30461
G1 X127.273 Y166.637 E33.34722
G1 X127.21 Y166.814 E33.35659
G1 X127.098 Y166.949 E33.36534
G1 X127.013 Y167.004 E33.37039
G1 X126.855 Y167.034 E33.37842
G1 X124.217 Y167.035 E33.51003
G1 X124.114 Y167.019 E33.51523
G1 X123.994 Y166.972 E33.52166
G1 X123.879 Y166.877 E33.5291
G1 X123.826 Y166.802 E33.53368
G1 X123.78 Y166.649 E33.54165
G1 X123.778 Y166.6 E33.5441
G1 X123.942 Y165.785 E33.58557
G1 X123.974 Y165.757 E33.5877
G1 X124.608 Y165.549 E33.62098
G1 X124.625 Y165.543 E33.62188
G1 X125.198 Y165.336 E33.65228
G1 X125.28 Y165.29 E33.65697
G1 X125.482 Y165.241 E33.66734
G0 F9000 X125.41 Y165.67
G1 F1800 X125.498 Y165.649 E33.67185
G1 X125.71 Y165.732 E33.68321
G1 X125.771 Y165.769 E33.68677
G1 X126.367 Y165.985 E33.7184
G1 X126.41 Y166 E33.72067
G1 X126.763 Y166.11 E33.73912
G1 X126.86 Y166.607 E33.76438
G1 X126.858 Y166.612 E33.76465
G1 X126.844 Y166.629 E33.76575
G1 X126.816 Y166.634 E33.76717
G1 X124.245 Y166.635 E33.89543
G1 X124.22 Y166.631 E33.8967
G1 X124.199 Y166.623 E33.89782
G1 X124.187 Y166.613 E33.8986
G1 X124.185 Y166.607 E33.89891
G1 X124.292 Y166.073 E33.92608
G1 X124.732 Y165.929 E33.94918
G1 X124.761 Y165.92 E33.9507
G1 X125.334 Y165.713 E33.98109
G1 X125.41 Y165.67 E33.98545
G1 F1500 E27.48545
G0 F9000 X125.576 Y165.206
G0 X143.977 Y166.566
G1 F1500 E33.98545
G1 F1800 X144.158 Y165.663 E34.0314
G1 X144.21 Y165.562 E34.03706
G1 X144.338 Y165.465 E34.04508
G1 X144.919 Y165.298 E34.07524
G1 X144.939 Y165.291 E34.07629
G1 X145.614 Y165.016 E34.11266
