;FLAVOR:Marlin
;TIME:4938
;Filament used: 3.48162m
;Layer height: 0.15
;MINX:117.65
;MINY:127.7
;MINZ:0.3
;MAXX:182.35
;MAXY:175.3
;MAXZ:11.1
;TARGET_MACHINE.NAME:Anet A8 Plus
;Generated with Cura_SteamEngine 5.8.1
M140 S60
M105
M190 S60
M104 S190
M105
M109 S190
M82 ;absolute extrusion mode
G28 ;Home
G1 Z15.0 F2000 ;Move the platform
G92 E0
G92 E0
G1 F1500 E-6.5
;LAYER_COUNT:73
;LAYER:0
M107
M204 S1000
G0 F9000 X125.433 Y128.888 Z0.3
;TYPE:SKIRT
G1 F1500 E0
G1 F1800 X125.874 Y128.479 E0.03001
G1 X126.346 Y128.165 E0.05829
G1 X126.864 Y127.927 E0.08673
G1 X127.35 Y127.788 E0.11195
G1 X127.997 Y127.71 E0.14446
G1 X128.332 Y127.701 E0.16118
G1 X171.336 Y127.7 E2.30666
G1 X172.039 Y127.71 E2.34174
G1 X172.636 Y127.77 E2.37167
G1 X173.186 Y127.916 E2.40006
G1 X173.649 Y128.118 E2.42526
G1 X174.13 Y128.418 E2.45354
G1 X174.652 Y128.89 E2.48865
G1 X175.465 Y129.786 E2.54902
G1 X175.956 Y130.343 E2.58606
G1 X177.827 Y132.341 E2.72262
G1 X179.726 Y134.257 E2.85721
G1 X181.259 Y135.734 E2.96341
G1 X181.594 Y136.113 E2.98865
G1 X181.933 Y136.645 E3.02012
G1 X182.154 Y137.168 E3.04845
G1 X182.291 Y137.718 E3.07673
G1 X182.338 Y138.19 E3.10039
G1 X182.35 Y138.605 E3.1211
G1 X182.35 Y171.009 E4.73775
G1 X182.341 Y171.736 E4.77402
G1 X182.283 Y172.333 E4.80394
G1 X182.137 Y172.883 E4.83233
G1 X181.907 Y173.402 E4.86065
G1 X181.598 Y173.88 E4.88905
G1 X181.217 Y174.303 E4.91745
G1 X180.776 Y174.66 E4.94576
G1 X180.282 Y174.944 E4.97419
G1 X179.751 Y175.145 E5.00251
G1 X179.205 Y175.261 E5.03036
G1 X178.842 Y175.29 E5.04853
G1 X178.51 Y175.299 E5.0651
G1 X121.911 Y175.3 E7.88884
G1 X121.213 Y175.291 E7.92366
G1 X120.615 Y175.232 E7.95364
G1 X120.065 Y175.086 E7.98203
G1 X119.545 Y174.855 E8.01042
G1 X119.069 Y174.547 E8.0387
G1 X118.646 Y174.166 E8.06711
G1 X118.289 Y173.723 E8.09549
G1 X118.006 Y173.231 E8.12381
G1 X117.804 Y172.699 E8.1522
G1 X117.689 Y172.153 E8.18004
G1 X117.66 Y171.788 E8.1983
G1 X117.651 Y171.444 E8.21547
G1 X117.65 Y138.955 E9.83635
G1 X117.66 Y138.252 E9.87143
G1 X117.72 Y137.655 E9.90137
G1 X117.866 Y137.105 E9.92975
G1 X118.068 Y136.642 E9.95496
G1 X118.408 Y136.108 E9.98654
G1 X118.78 Y135.694 E10.01431
G1 X120.022 Y134.514 E10.09978
G1 X122.008 Y132.552 E10.23906
G1 X123.878 Y130.598 E10.37399
G1 X125.433 Y128.888 E10.4893
G0 F9000 X125.729 Y129.157
G1 F1800 X126.098 Y128.81 E10.51457
G1 X126.516 Y128.527 E10.53976
G1 X126.974 Y128.312 E10.565
G1 X127.46 Y128.173 E10.59022
G1 X128.008 Y128.11 E10.61774
G1 X128.332 Y128.101 E10.63391
G1 X171.33 Y128.1 E12.77909
G1 X172.033 Y128.11 E12.81416
G1 X172.536 Y128.157 E12.83937
G1 X173.026 Y128.283 E12.86461
G1 X173.489 Y128.485 E12.88981
G1 X173.916 Y128.756 E12.91504
G1 X174.356 Y129.159 E12.94481
G1 X175.165 Y130.051 E13.00489
G1 X175.656 Y130.608 E13.04193
G1 X177.543 Y132.623 E13.17966
G1 X179.442 Y134.539 E13.31425
G1 X180.959 Y135.999 E13.41929
G1 X181.294 Y136.378 E13.44452
G1 X181.566 Y136.804 E13.46974
G1 X181.767 Y137.268 E13.49497
G1 X181.893 Y137.758 E13.52021
G1 X181.938 Y138.202 E13.54247
G1 X181.95 Y138.617 E13.56319
G1 X181.95 Y171.004 E15.17898
G1 X181.941 Y171.731 E15.21525
G1 X181.895 Y172.234 E15.24045
G1 X181.77 Y172.724 E15.26568
G1 X181.569 Y173.188 E15.29091
G1 X181.298 Y173.615 E15.31614
G1 X180.963 Y173.994 E15.34138
G1 X180.573 Y174.315 E15.36658
G1 X180.137 Y174.571 E15.3918
G1 X179.666 Y174.754 E15.41701
G1 X179.172 Y174.862 E15.44224
G1 X178.831 Y174.89 E15.45931
G1 X178.51 Y174.899 E15.47533
G1 X121.916 Y174.9 E18.29882
G1 X121.218 Y174.891 E18.33364
G1 X120.714 Y174.844 E18.3589
G1 X120.224 Y174.719 E18.38413
G1 X119.76 Y174.518 E18.40935
G1 X119.334 Y174.247 E18.43454
G1 X118.955 Y173.912 E18.45978
G1 X118.634 Y173.521 E18.48502
G1 X118.379 Y173.085 E18.51022
G1 X118.195 Y172.614 E18.53545
G1 X118.088 Y172.12 E18.56066
G1 X118.06 Y171.777 E18.57783
G1 X118.051 Y171.444 E18.59445
G1 X118.05 Y138.961 E20.21504
G1 X118.06 Y138.258 E20.25011
G1 X118.107 Y137.755 E20.27532
G1 X118.233 Y137.265 E20.30056
G1 X118.435 Y136.802 E20.32576
G1 X118.706 Y136.375 E20.35099
G1 X119.056 Y135.984 E20.37717
G1 X120.298 Y134.804 E20.46264
G1 X122.289 Y132.837 E20.60227
G1 X124.167 Y130.875 E20.73777
G1 X125.729 Y129.157 E20.85361
G1 F1500 E14.35361
;MESH:IOSTB-Label.24B7.stl
G0 F9000 X127.426 Y131.714
G0 X128.505 Y131.714
G0 X129.13 Y134.901
G0 X129.13 Y134.994
;TYPE:WALL-INNER
G1 F1500 E20.85361
G1 F1855.7 X129.058 Y134.952 E20.85765
G1 X129.058 Y135.036 E20.86171
G1 X129.13 Y134.994 E20.86575
G0 F9000 X129.13 Y134.901
G0 X128.682 Y136.206
G1 F1855.7 X129.07 Y136.206 E20.88452
G1 X129.07 Y135.8 E20.90417
G1 F1827.4 X129.312 Y135.313 E20.93089
G1 F1800 X129.539 Y135.199 E20.94357
G1 X129.918 Y135.2 E20.96248
G1 X129.475 Y134.86 E20.99034
G1 X129.176 Y134.47 E21.01485
G1 F1904.8 X129.019 Y134.042 E21.03635
G1 F2080.9 X128.973 Y133.553 E21.05754
G1 F2069 X129.019 Y133.062 E21.07895
G1 F1782.2 X129.198 Y132.472 E21.11002
G1 F1445.8 X129.495 Y132.129 E21.1382
G1 F1321.1 X129.701 Y131.972 E21.1558
G1 X128.761 Y131.973 E21.2197
G1 X128.761 Y132.246 E21.23826
G1 F1457.5 X128.709 Y132.597 E21.26012
G1 F1818.2 X128.662 Y133.135 E21.28679
G1 F2130.2 X128.651 Y133.548 E21.30421
G1 F1983.5 X128.688 Y134.503 E21.34748
G1 F1827.4 X128.682 Y136.206 E21.43117
G0 F9000 X129.238 Y135.373
G0 X131.229 Y135.186
G0 X134.29 Y133.55
G1 F1440 X142.164 Y133.55 E21.92222
G1 F1295 X142.871 Y133.605 E21.97139
G0 F9000 X150.041 Y134.225
G1 F2057.1 X155.155 Y134.225 E22.19464
G1 X155.177 Y134.161 E22.19759
G1 X155.488 Y133.875 E22.21604
G1 X143.84 Y133.875 E22.72452
G1 X144.151 Y134.161 E22.74296
G1 X144.173 Y134.225 E22.74592
G1 X150.041 Y134.225 E23.00208
G0 F9000 X150.04 Y134.6
G1 F1800 X155.395 Y134.6 E23.26924
G1 X155.467 Y134.4 E23.27985
G1 X155.905 Y133.995 E23.30961
G1 F1739.1 X156.485 Y133.693 E23.34337
G1 F1493.8 X156.773 Y133.566 E23.3623
G1 X156.457 Y133.513 E23.38156
G1 F1739.1 X155.75 Y133.5 E23.41807
G1 F1800 X143.578 Y133.5 E24.02533
G1 F1422.9 X142.871 Y133.605 E24.07044
G1 X143.423 Y133.995 E24.1131
G1 F1800 X143.861 Y134.4 E24.14286
G1 X143.933 Y134.6 E24.15347
G1 X150.04 Y134.6 E24.45814
G0 F9000 X156.773 Y133.566
G1 F1390 X157.164 Y133.55 E24.48343
G1 F1440 X165.79 Y133.55 E25.02137
G0 F9000 X150.04 Y135
G1 F1800 X155.651 Y135 E25.3013
G1 X155.775 Y134.654 E25.31964
G1 X156.134 Y134.323 E25.344
G1 X156.709 Y134.038 E25.37602
G1 X157.164 Y134 E25.3988
G1 X166.281 Y134 E25.85365
G1 X166.24 Y133.55 E25.87619
G1 X166.282 Y133.1 E25.89874
G1 X133.795 Y133.1 E27.51952
G1 X133.84 Y133.55 E27.54208
G1 X133.796 Y134 E27.56464
G1 X142.164 Y134 E27.98212
G1 X142.716 Y134.086 E28.00999
G1 X143.194 Y134.323 E28.03661
G1 X143.553 Y134.654 E28.06097
G1 X143.677 Y135 E28.07931
G1 X150.04 Y135 E28.39676
G0 F9000 X150.04 Y135.4
G1 F1800 X155.907 Y135.4 E28.68947
G1 X156.084 Y134.909 E28.71551
G1 X156.363 Y134.651 E28.73447
G1 X156.734 Y134.467 E28.75513
G1 X157.164 Y134.4 E28.77684
G1 X166.784 Y134.4 E29.25678
G1 X166.69 Y134.048 E29.27496
G1 X166.629 Y133.557 E29.29964
G1 X166.69 Y133.058 E29.32472
G1 X166.785 Y132.7 E29.3432
G1 X133.292 Y132.699 E31.01418
G1 X133.383 Y133.037 E31.03164
G1 X133.444 Y133.482 E31.05405
G1 X133.428 Y133.737 E31.06679
G1 X133.384 Y134.061 E31.08311
G1 X133.292 Y134.4 E31.10063
G1 X142.164 Y134.4 E31.54326
G1 X142.594 Y134.467 E31.56497
G1 X142.965 Y134.651 E31.58563
G1 X143.244 Y134.909 E31.60459
G1 X143.421 Y135.4 E31.63063
G1 X150.04 Y135.4 E31.96085
G0 F9000 X150.04 Y135.8
G1 F1800 X156.164 Y135.8 E32.26638
G1 X156.392 Y135.163 E32.30013
G1 X156.591 Y134.979 E32.31365
G1 X156.857 Y134.848 E32.32845
G1 X157.164 Y134.8 E32.34395
G1 X167.422 Y134.799 E32.85572
G1 X167.285 Y134.569 E32.86908
G1 X167.158 Y134.265 E32.88552
G1 X167.087 Y133.999 E32.89925
G1 X167.036 Y133.514 E32.92358
G1 X167.087 Y133.108 E32.944
G1 X167.156 Y132.848 E32.95742
G1 X167.284 Y132.54 E32.97406
G1 X167.426 Y132.3 E32.98797
G1 X132.654 Y132.3 E34.72275
G1 X132.799 Y132.546 E34.737
G1 X132.97 Y132.97 E34.75981
G1 X133.049 Y133.546 E34.78881
G1 X132.988 Y134.007 E34.81201
G1 X132.921 Y134.255 E34.82483
G1 X132.797 Y134.555 E34.84102
G1 X132.65 Y134.8 E34.85528
G1 X142.164 Y134.8 E35.32993
G1 X142.471 Y134.848 E35.34544
G1 X142.737 Y134.979 E35.36023
G1 X142.936 Y135.163 E35.37375
G1 X143.164 Y135.8 E35.40751
G1 X150.04 Y135.8 E35.75055
G0 F9000 X150.04 Y136.2
G1 F1800 X156.564 Y136.2 E36.07603
G1 X156.564 Y135.8 E36.09599
G1 X156.701 Y135.418 E36.11624
G1 X156.98 Y135.228 E36.13308
G1 X157.164 Y135.2 E36.14236
G1 X168.412 Y135.2 E36.70353
G1 X167.975 Y134.863 E36.73106
G1 X167.683 Y134.482 E36.75501
G1 X167.492 Y134.026 E36.77967
G1 X167.44 Y133.551 E36.80351
G1 X167.493 Y133.079 E36.82721
G1 X167.683 Y132.621 E36.85195
G1 X167.978 Y132.237 E36.87611
G1 X168.295 Y131.995 E36.896
G1 X168.475 Y131.9 E36.90616
G1 X131.662 Y131.9 E38.74276
G1 X132.099 Y132.235 E38.77024
G1 X132.398 Y132.623 E38.79467
G1 X132.582 Y133.076 E38.81907
G1 X132.64 Y133.549 E38.84284
G1 X132.582 Y134.027 E38.86686
G1 X132.397 Y134.474 E38.891
G1 X132.109 Y134.857 E38.91491
G1 X131.662 Y135.2 E38.94302
G1 X142.164 Y135.2 E39.46696
G1 X142.348 Y135.228 E39.47625
G1 X142.627 Y135.418 E39.49309
G1 X142.764 Y135.8 E39.51334
G1 X142.764 Y136.2 E39.53329
G1 X150.04 Y136.2 E39.89629
G0 F9000 X150.04 Y135.9
G0 X156.738 Y135.373
G0 X170.094 Y135.373
G0 X170.658 Y135.806
G1 F1855.7 X170.994 Y135.806 E39.91255
G1 X170.994 Y134.999 E39.95161
G1 X170.779 Y135.224 E39.96667
G1 X170.565 Y135.389 E39.97975
G1 X170.615 Y135.508 E39.98599
G1 X170.658 Y135.806 E40.00056
G0 F9000 X171.388 Y136.2
G1 F1800 X171.388 Y134.497 E40.08553
G1 F1989 X171.426 Y133.552 E40.12823
G1 F2057.1 X171.401 Y132.932 E40.15531
G1 F1647.6 X171.339 Y132.387 E40.18521
G1 F1379.3 X171.315 Y132.246 E40.19452
G1 F1318.7 X171.315 Y131.973 E40.21312
G1 X170.374 Y131.974 E40.2772
G1 X170.582 Y132.13 E40.2949
G1 F1451.6 X170.863 Y132.454 E40.32144
G1 F1809 X171.058 Y133.058 E40.35294
G1 F2142.9 X171.102 Y133.552 E40.37373
G1 X171.058 Y134.046 E40.39451
G1 F1925.1 X170.902 Y134.474 E40.41576
G1 F1800 X170.602 Y134.863 E40.44027
G1 X170.279 Y135.112 E40.46062
G1 X169.927 Y135.281 E40.4801
G1 X170.1 Y135.386 E40.49019
G1 X170.193 Y135.515 E40.49813
G1 X170.258 Y135.713 E40.50852
G1 X170.264 Y136.2 E40.53282
G1 X171.388 Y136.2 E40.5889
G1 F1500 E34.0889
G0 F9000 X171.121 Y135.931
G0 X170.094 Y135.373
G0 X168.903 Y135.257
G0 X168.935 Y135.019
;TYPE:WALL-OUTER
G1 F1500 E40.5889
G1 F1561.8 X168.542 Y134.795 E40.61491
G1 F1800 X168.245 Y134.558 E40.63387
G1 X168.023 Y134.258 E40.65248
G1 X167.884 Y133.927 E40.6704
G1 X167.841 Y133.527 E40.69047
G1 X167.884 Y133.179 E40.70796
G1 X168.049 Y132.802 E40.72849
G1 X168.282 Y132.509 E40.74717
G1 X168.538 Y132.313 E40.76325
G1 F1558.4 X168.935 Y132.084 E40.78966
G1 F1403.5 X169.288 Y132.053 E40.81234
G1 X169.644 Y132.084 E40.8352
G1 F1558.4 X170.037 Y132.312 E40.86138
G1 F1800 X170.321 Y132.526 E40.87912
G1 X170.557 Y132.851 E40.89916
G1 X170.682 Y133.151 E40.91538
G1 X170.743 Y133.55 E40.93551
G1 X170.694 Y133.911 E40.95369
G1 X170.547 Y134.278 E40.97341
G1 X170.331 Y134.559 E40.99109
G1 X170.035 Y134.795 E41.00998
G1 F1561.8 X169.644 Y135.019 E41.03589
G1 F1409 X169.288 Y135.05 E41.05867
G1 X168.935 Y135.019 E41.08125
G0 F9000 X168.762 Y134.92
G1 F1500 E34.58125
G0 F9000 X168.657 Y135.173
G0 X156.738 Y135.373
G0 X150.04 Y135.9
G0 X150.04 Y136.6
G1 F1500 E41.08125
G1 F1800 X156.964 Y136.6 E41.42669
G1 X156.964 Y135.8 E41.4666
G1 X157.009 Y135.672 E41.47337
G1 X157.129 Y135.602 E41.4803
G1 X168.436 Y135.6 E42.04441
G1 F1561.8 X168.903 Y135.539 E42.07149
G1 F1409 X169.288 Y135.55 E42.09604
G1 X169.67 Y135.539 E42.1204
G1 F1561.8 X169.864 Y135.727 E42.13593
G1 F1800 X169.864 Y136.6 E42.17948
G1 X171.788 Y136.6 E42.27547
G1 X171.788 Y131.5 E42.52991
G1 X170.153 Y131.5 E42.61148
G1 F1558.4 X169.676 Y131.562 E42.6392
G1 F1403.5 X169.288 Y131.551 E42.66404
G1 X168.903 Y131.562 E42.68868
G1 F1558.4 X168.426 Y131.5 E42.7164
G1 F1800 X131.652 Y131.5 E44.55106
G1 F1561.8 X131.176 Y131.561 E44.57865
G1 F1409 X130.788 Y131.55 E44.60339
G1 X130.403 Y131.561 E44.62794
G1 F1561.8 X129.927 Y131.5 E44.65553
G1 F1800 X128.289 Y131.501 E44.73725
G1 X128.288 Y136.6 E44.99164
G1 X129.464 Y136.6 E45.05031
G1 X129.464 Y135.8 E45.09023
G1 X129.546 Y135.637 E45.09933
G1 X129.624 Y135.599 E45.10366
G1 X129.935 Y135.6 E45.11917
G1 F1558.4 X130.397 Y135.538 E45.14603
G1 F1406.2 X130.788 Y135.55 E45.17102
G1 X131.183 Y135.538 E45.19625
G1 F1558.4 X131.645 Y135.6 E45.22311
G1 F1800 X142.208 Y135.6 E45.7501
G1 X142.319 Y135.672 E45.7567
G1 X142.364 Y135.8 E45.76347
G1 X142.364 Y136.6 E45.80338
G1 X150.04 Y136.6 E46.18634
G0 F9000 X150.24 Y136.6
G1 F1500 E39.68634
G0 F9000 X150.24 Y135.9
G0 X142.594 Y135.373
G0 X131.177 Y135.254
G0 X131.148 Y135.016
G1 F1500 E46.18634
G1 F1400.8 X130.754 Y135.049 E46.21169
G1 X130.432 Y135.016 E46.23244
G1 F1558.4 X130.042 Y134.791 E46.25839
G1 F1800 X129.745 Y134.554 E46.27734
G1 X129.523 Y134.254 E46.29596
G1 X129.382 Y133.907 E46.31465
G1 X129.34 Y133.548 E46.33268
G1 X129.384 Y133.176 E46.35137
G1 X129.549 Y132.798 E46.37195
G1 X129.782 Y132.505 E46.39062
G1 X130.038 Y132.309 E46.40671
G1 F1561.8 X130.435 Y132.081 E46.43303
G1 F1409 X130.788 Y132.05 E46.45562
G1 X131.144 Y132.081 E46.47839
G1 F1561.8 X131.538 Y132.309 E46.50457
G1 F1800 X131.831 Y132.542 E46.52324
G1 X132.058 Y132.848 E46.54225
G1 X132.195 Y133.2 E46.5611
G1 X132.243 Y133.547 E46.57857
G1 X132.195 Y133.899 E46.5963
G1 X132.057 Y134.249 E46.61507
G1 X131.836 Y134.553 E46.63382
G1 X131.538 Y134.791 E46.65284
G1 F1558.4 X131.148 Y135.016 E46.67879
G0 F9000 X130.949 Y135.032
G0 X132.606 Y134.601
G1 F1500 E40.17879
;MESH:IOSTB-Lift.24B7.stl
G0 F9000 X132.659 Y134.628
G0 X131.229 Y135.186
G0 X129.252 Y135.387
G0 X130.319 Y136.454
G0 X130.319 Y137.453
G0 X129.252 Y137.635
G0 X129.252 Y138.72
G0 X124.02 Y141.072
G0 X123.207 Y149.499
G0 X123.275 Y150.02
G0 X123.48 Y150.52
G0 X123.806 Y150.944
G0 X124.738 Y151.749
G0 X124.9 Y169.1
;TYPE:WALL-INNER
G1 F1500 E46.67879
G1 F1800 X124.9 Y153.673 E47.44844
G1 X124.451 Y153.616 E47.47103
G1 X123.848 Y153.449 E47.50224
G1 X123.848 Y169.1 E48.28307
G1 X124.9 Y169.1 E48.33556
G0 F9000 X125.3 Y169.5
G1 F1800 X125.3 Y153.28 E49.14478
G1 X124.972 Y153.279 E49.16114
G1 X124.51 Y153.221 E49.18437
G1 X123.997 Y153.079 E49.21093
G1 X123.449 Y152.853 E49.2405
G1 X123.448 Y169.5 E50.07102
G1 X125.3 Y169.5 E50.16342
G0 F9000 X125.7 Y169.9
G1 F1800 X125.7 Y152.854 E51.01385
G1 X125.474 Y152.883 E51.02522
G1 X125.022 Y152.883 E51.04777
G1 X124.569 Y152.825 E51.07055
G1 X124.15 Y152.709 E51.09224
G1 X123.761 Y152.549 E51.11323
G1 X123.348 Y152.31 E51.13703
G1 X123.049 Y152.079 E51.15588
G1 X123.048 Y169.9 E52.04498
G1 X125.7 Y169.9 E52.17728
G0 F9000 X126.1 Y170.3
G1 F1800 X126.1 Y152.364 E53.07211
G1 X125.836 Y152.433 E53.08573
G1 X125.424 Y152.486 E53.10645
G1 X125.072 Y152.486 E53.12401
G1 X124.629 Y152.429 E53.1463
G1 X124.302 Y152.339 E53.16322
G1 X123.914 Y152.179 E53.18416
G1 X123.592 Y151.993 E53.20271
G1 X123.261 Y151.737 E53.22359
G1 X123.007 Y151.483 E53.24151
G1 X122.648 Y151.019 E53.27078
G1 X122.648 Y170.3 E54.23271
G1 X126.1 Y170.3 E54.40493
G1 F1500 E47.90493
G0 F9000 X124.618 Y151.862
G0 X124.026 Y151.619
G0 X123.521 Y151.229
G0 X123.131 Y150.722
G0 X122.885 Y150.124
G0 X122.803 Y149.499
G0 X122.888 Y148.868
G0 X123.131 Y148.276
G0 X123.521 Y147.771
G0 X126.672 Y145.472
G0 X133.422 Y144.472
G0 X153.578 Y144.472
G0 X173.328 Y145.472
G0 X176.479 Y147.771
G0 X176.869 Y148.278
G0 X177.115 Y148.876
G0 X177.197 Y149.501
G0 X177.112 Y150.132
G0 X176.869 Y150.724
G0 X176.479 Y151.229
G0 X175.974 Y151.619
G0 X175.382 Y151.862
G0 X174.803 Y156.762
G0 X175.1 Y169.1
G1 F1500 E54.40493
G1 F1800 X176.148 Y169.1 E54.45721
G1 X176.148 Y153.449 E55.23805
G1 X175.547 Y153.615 E55.26915
G1 X175.1 Y153.673 E55.29164
G1 X175.1 Y169.1 E56.0613
G0 F9000 X174.7 Y169.5
G1 F1800 X176.548 Y169.5 E56.15349
G1 X176.548 Y152.851 E56.98412
G1 X175.999 Y153.079 E57.01377
G1 X175.487 Y153.22 E57.04027
G1 X175.024 Y153.279 E57.06355
G1 X174.7 Y153.279 E57.07972
G1 X174.7 Y169.5 E57.88899
G0 F9000 X174.3 Y169.9
