;FLAVOR:Marlin
;TIME:1806
;Filament used: 1.53789m
;Layer height: 0.15
;MINX:130.8
;MINY:127.425
;MINZ:0.3
;MAXX:169.2
;MAXY:172.575
;MAXZ:9.45
;TARGET_MACHINE.NAME:Anet A8 Plus
;Generated with Cura_SteamEngine 5.8.1
M140 S60
M105
M190 S60
M104 S200
M105
M109 S200
M82 ;absolute extrusion mode
G28 ;Home
G1 Z15.0 F2000 ;Move the platform
G92 E0
G92 E0
G1 F1500 E-6.5
;LAYER_COUNT:62
;LAYER:0
M107
M204 S1000
G0 F9000 X131.935 Y128.42 Z0.3
;TYPE:SKIRT
G1 F1500 E0
G1 F2400 X132.378 Y128.063 E0.02838
G1 X132.871 Y127.78 E0.05674
G1 X133.342 Y127.596 E0.08197
G1 X133.949 Y127.464 E0.11296
G1 X134.308 Y127.435 E0.13093
G1 X134.64 Y127.426 E0.1475
G1 X164.945 Y127.425 E1.65942
G1 X165.643 Y127.435 E1.69425
G1 X166.24 Y127.495 E1.72419
G1 X166.79 Y127.641 E1.75258
G1 X167.254 Y127.843 E1.77782
G1 X167.735 Y128.145 E1.80616
G1 X168.208 Y128.564 E1.83768
G1 X168.563 Y129.006 E1.86597
G1 X168.846 Y129.5 E1.89437
G1 X169.047 Y130.031 E1.9227
G1 X169.162 Y130.578 E1.95058
G1 X169.19 Y130.934 E1.9684
G1 X169.199 Y131.265 E1.98492
G1 X169.2 Y168.284 E3.8318
G1 X169.191 Y169.011 E3.86808
G1 X169.133 Y169.608 E3.898
G1 X168.987 Y170.158 E3.92639
G1 X168.757 Y170.677 E3.95471
G1 X168.448 Y171.155 E3.98311
G1 X168.067 Y171.578 E4.01151
G1 X167.626 Y171.935 E4.03982
G1 X167.132 Y172.219 E4.06825
G1 X166.601 Y172.42 E4.09657
G1 X166.055 Y172.536 E4.12442
G1 X165.692 Y172.565 E4.14259
G1 X165.36 Y172.574 E4.15916
G1 X135.061 Y172.575 E5.67078
G1 X134.363 Y172.566 E5.70561
G1 X133.765 Y172.507 E5.73559
G1 X133.215 Y172.361 E5.76398
G1 X132.695 Y172.13 E5.79237
G1 X132.219 Y171.822 E5.82065
G1 X131.796 Y171.441 E5.84905
G1 X131.439 Y170.998 E5.87744
G1 X131.156 Y170.506 E5.90575
G1 X130.954 Y169.974 E5.93415
G1 X130.839 Y169.428 E5.96198
G1 X130.81 Y169.063 E5.98025
G1 X130.801 Y168.719 E5.99742
G1 X130.8 Y131.651 E7.84675
G1 X130.809 Y130.986 E7.87993
G1 X130.869 Y130.387 E7.90996
G1 X131.015 Y129.839 E7.93826
G1 X131.245 Y129.32 E7.96658
G1 X131.555 Y128.842 E7.995
G1 X131.935 Y128.42 E8.02333
G0 F9000 X132.189 Y128.729
G1 F2400 X132.58 Y128.408 E8.04857
G1 X133.017 Y128.153 E8.07381
G1 X133.488 Y127.969 E8.09904
G1 X133.982 Y127.863 E8.12425
G1 X134.319 Y127.835 E8.14112
G1 X134.64 Y127.826 E8.15714
G1 X164.939 Y127.825 E9.66876
G1 X165.637 Y127.835 E9.70359
G1 X166.14 Y127.882 E9.72879
G1 X166.63 Y128.008 E9.75404
G1 X167.094 Y128.21 E9.77928
G1 X167.52 Y128.482 E9.8045
G1 X167.898 Y128.817 E9.8297
G1 X168.218 Y129.208 E9.85491
G1 X168.473 Y129.645 E9.88015
G1 X168.656 Y130.116 E9.90536
G1 X168.763 Y130.61 E9.93057
G1 X168.79 Y130.945 E9.94734
G1 X168.799 Y131.265 E9.96331
G1 X168.8 Y168.279 E11.80995
G1 X168.791 Y169.006 E11.84622
G1 X168.745 Y169.509 E11.87142
G1 X168.62 Y169.999 E11.89665
G1 X168.419 Y170.463 E11.92188
G1 X168.148 Y170.89 E11.94711
G1 X167.813 Y171.269 E11.97235
G1 X167.423 Y171.59 E11.99755
G1 X166.987 Y171.846 E12.02277
G1 X166.516 Y172.029 E12.04798
G1 X166.022 Y172.137 E12.07321
G1 X165.681 Y172.165 E12.09028
G1 X165.36 Y172.174 E12.1063
G1 X135.066 Y172.175 E13.61767
G1 X134.368 Y172.166 E13.6525
G1 X133.864 Y172.119 E13.67775
G1 X133.374 Y171.994 E13.70298
G1 X132.91 Y171.793 E13.72821
G1 X132.484 Y171.522 E13.7534
G1 X132.105 Y171.187 E13.77863
G1 X131.784 Y170.796 E13.80387
G1 X131.529 Y170.36 E13.82907
G1 X131.345 Y169.889 E13.8543
G1 X131.238 Y169.395 E13.87952
G1 X131.21 Y169.052 E13.89669
G1 X131.201 Y168.719 E13.91331
G1 X131.2 Y131.656 E15.76239
G1 X131.209 Y130.991 E15.79557
G1 X131.256 Y130.487 E15.82082
G1 X131.382 Y129.998 E15.84601
G1 X131.583 Y129.534 E15.87124
G1 X131.854 Y129.107 E15.89647
G1 X132.189 Y128.729 E15.92167
G1 F1500 E9.42167
;MESH:Tode-Relay-Mount.stl
G0 F9000 X134.814 Y130.36
G0 X134.814 Y131.439
G0 X137.073 Y133.643
;TYPE:WALL-INNER
G1 F1500 E15.92167
G1 F2191.8 X137.046 Y133.596 E15.92463
G1 X136.992 Y133.596 E15.92758
G1 X136.965 Y133.643 E15.93054
G1 X136.992 Y133.69 E15.93351
G1 X137.046 Y133.69 E15.93646
G1 X137.073 Y133.643 E15.93942
G0 F9000 X136.601 Y134.873
G1 F2400 X136.769 Y134.58 E15.95627
G1 X137.025 Y134.248 E15.97718
G1 X137.298 Y133.954 E15.9972
G1 X137.756 Y133.593 E16.02629
G1 X138.392 Y133.224 E16.06298
G1 X136.6 Y133.224 E16.15238
G1 X136.601 Y134.873 E16.23465
G0 F9000 X137.781 Y137.949
G0 X138.097 Y138.358
G0 X139.993 Y140.128
G1 F2400 X139.659 Y140.109 E16.25134
G1 X139.243 Y140.053 E16.27228
G1 X138.791 Y139.93 E16.29565
G1 X138.407 Y139.77 E16.31641
G1 X138.011 Y139.542 E16.3392
G1 X137.679 Y139.29 E16.36
G1 X137.342 Y138.956 E16.38367
G1 X137.086 Y138.624 E16.40459
G1 X136.848 Y138.211 E16.42837
G1 X136.688 Y137.823 E16.4493
G1 F2424.2 X136.583 Y137.447 E16.46859
G1 F2513.1 X136.521 Y136.805 E16.49932
G1 F2637.4 X136.535 Y136.501 E16.51313
G1 F2594.6 X136.574 Y136.088 E16.53228
G1 F2449 X136.687 Y135.625 E16.55558
G1 F2400 X136.848 Y135.237 E16.57654
G1 X137.086 Y134.824 E16.60032
G1 X137.342 Y134.492 E16.62123
G1 X137.565 Y134.252 E16.63758
G1 X138 Y133.91 E16.66518
G1 X138.407 Y133.674 E16.68866
G1 F2152.5 X139.165 Y133.357 E16.73436
G1 F1991.7 X139.817 Y133.295 E16.77373
G1 F2069 X140.13 Y133.309 E16.79187
G1 F2038.2 X140.543 Y133.348 E16.81624
G1 F2171.9 X141.004 Y133.514 E16.84325
G1 F2400 X141.389 Y133.674 E16.86405
G1 X141.796 Y133.91 E16.88752
G1 X142.128 Y134.166 E16.90844
G1 X142.454 Y134.492 E16.93144
G1 X142.71 Y134.824 E16.95235
G1 X142.949 Y135.238 E16.9762
G1 X143.109 Y135.625 E16.9971
G1 X143.23 Y136.086 E17.02087
G1 X143.282 Y136.498 E17.04159
G1 X143.3 Y136.808 E17.05708
G1 X143.213 Y137.493 E17.09153
G1 X143.129 Y137.772 E17.10607
G1 X142.848 Y138.44 E17.14222
G1 X142.392 Y139.032 E17.17951
G1 X142.166 Y139.252 E17.19524
G1 X141.77 Y139.554 E17.22009
G1 X141.505 Y139.717 E17.23561
G1 X140.765 Y140.024 E17.27558
G1 X139.993 Y140.128 E17.31444
G0 F9000 X139.974 Y139.728
G1 F2400 X139.713 Y139.712 E17.32749
G1 X139.297 Y139.656 E17.34843
G1 X138.945 Y139.561 E17.36662
G1 X138.561 Y139.401 E17.38737
G1 X138.253 Y139.224 E17.4051
G1 X137.921 Y138.972 E17.42589
G1 X137.659 Y138.711 E17.44434
G1 X137.403 Y138.38 E17.46522
G1 X137.218 Y138.058 E17.48374
G1 X137.058 Y137.67 E17.50468
G1 X136.973 Y137.378 E17.51986
G1 X136.887 Y136.726 E17.55267
G1 X136.963 Y136.137 E17.5823
G1 X137.057 Y135.778 E17.60081
G1 X137.218 Y135.39 E17.62177
G1 X137.403 Y135.068 E17.64029
G1 X137.659 Y134.737 E17.66117
G1 X137.833 Y134.55 E17.67391
G1 X138.245 Y134.226 E17.70006
G1 X138.561 Y134.043 E17.71828
G1 X138.945 Y133.883 E17.73904
G1 X139.242 Y133.796 E17.75448
G1 X139.899 Y133.712 E17.78752
G1 X140.488 Y133.786 E17.81714
G1 X140.851 Y133.883 E17.83588
G1 X141.235 Y134.043 E17.85664
G1 X141.551 Y134.226 E17.87486
G1 X141.883 Y134.483 E17.8958
G1 X142.137 Y134.736 E17.91369
G1 X142.393 Y135.068 E17.9346
G1 X142.579 Y135.39 E17.95316
G1 X142.739 Y135.778 E17.97409
G1 X142.833 Y136.136 E17.99256
G1 X142.909 Y136.739 E18.02288
G1 X142.798 Y137.521 E18.06229
G1 X142.502 Y138.235 E18.10085
G1 X142.02 Y138.86 E18.14023
G1 X141.398 Y139.335 E18.17927
G1 X140.75 Y139.598 E18.21416
G1 X140.501 Y139.656 E18.22692
G1 X139.974 Y139.728 E18.25345
G0 F9000 X139.903 Y139.334
G1 F2400 X139.35 Y139.26 E18.28129
G1 X139.099 Y139.192 E18.29426
G1 X138.715 Y139.032 E18.31502
G1 X138.495 Y138.905 E18.32769
G1 X138.163 Y138.653 E18.34848
G1 X137.976 Y138.467 E18.36164
G1 X137.719 Y138.135 E18.38259
G1 X137.587 Y137.906 E18.39578
G1 X137.379 Y137.402 E18.42298
G1 X137.291 Y136.726 E18.45699
G1 X137.36 Y136.187 E18.4841
G1 X137.427 Y135.93 E18.49735
G1 X137.587 Y135.542 E18.51829
G1 X137.719 Y135.313 E18.53147
G1 X138.049 Y134.887 E18.55836
G1 X138.489 Y134.543 E18.58622
G1 X138.715 Y134.412 E18.59926
G1 X139.22 Y134.202 E18.62654
G1 X139.899 Y134.115 E18.66069
G1 X140.438 Y134.183 E18.6878
G1 X140.697 Y134.252 E18.70117
G1 X141.081 Y134.412 E18.72192
G1 X141.307 Y134.543 E18.73496
G1 X141.639 Y134.8 E18.7559
G1 X141.82 Y134.981 E18.76867
G1 X142.076 Y135.313 E18.78959
G1 X142.209 Y135.542 E18.8028
G1 X142.369 Y135.93 E18.82374
G1 X142.437 Y136.186 E18.83695
G1 X142.505 Y136.723 E18.86396
G1 X142.421 Y137.389 E18.89745
G1 X142.153 Y138.034 E18.9323
G1 X141.733 Y138.578 E18.96658
G1 X141.173 Y138.994 E19.00139
G1 X140.595 Y139.234 E19.03261
G1 X139.903 Y139.334 E19.06749
G0 F9000 X139.906 Y138.924
G1 F2400 X139.33 Y138.854 E19.09644
G1 X138.798 Y138.633 E19.12518
G1 X138.339 Y138.284 E19.15395
G1 X137.989 Y137.83 E19.18255
G1 X137.767 Y137.293 E19.21154
G1 X137.7 Y136.724 E19.24012
G1 X137.765 Y136.161 E19.2684
G1 X137.989 Y135.618 E19.2977
G1 X138.334 Y135.171 E19.32587
G1 X138.792 Y134.814 E19.35485
G1 X139.33 Y134.59 E19.38392
G1 X139.9 Y134.524 E19.41255
G1 X140.463 Y134.589 E19.44082
G1 X141.003 Y134.814 E19.47001
G1 X141.456 Y135.163 E19.49854
G1 X141.807 Y135.619 E19.52725
G1 X142.03 Y136.158 E19.55635
G1 X142.102 Y136.727 E19.58496
G1 X142.024 Y137.304 E19.61401
G1 X141.804 Y137.835 E19.64269
G1 X141.443 Y138.296 E19.6719
G1 X140.997 Y138.632 E19.69976
G1 X140.46 Y138.855 E19.72877
G1 X139.906 Y138.924 E19.75662
G1 F1500 E13.25662
G0 F9000 X139.946 Y139.227
G0 X144.056 Y138.031
G0 X143.167 Y133.807
G0 X156.829 Y133.807
G0 X157.043 Y137.32
G0 X160.002 Y140.129
G1 F1500 E19.75662
G1 F2400 X159.196 Y140.01 E19.79727
G1 X158.491 Y139.717 E19.83536
G1 X158.226 Y139.554 E19.85088
G1 X157.83 Y139.252 E19.87572
G1 X157.604 Y139.032 E19.89146
G1 X157.147 Y138.438 E19.92885
G1 X156.795 Y137.589 E19.9747
G1 X156.696 Y136.808 E20.01398
G1 X156.714 Y136.498 E20.02947
G1 X156.766 Y136.086 E20.05019
G1 X156.887 Y135.625 E20.07397
G1 X157.047 Y135.238 E20.09486
G1 X157.286 Y134.824 E20.11871
G1 X157.542 Y134.492 E20.13962
G1 X157.868 Y134.166 E20.16262
G1 X158.2 Y133.91 E20.18354
G1 X158.607 Y133.674 E20.20701
G1 F2152.5 X159.365 Y133.357 E20.25272
G1 F1991.7 X160.017 Y133.295 E20.29209
G1 F2069 X160.33 Y133.309 E20.31022
G1 F2038.2 X160.743 Y133.348 E20.33459
G1 F2171.9 X161.204 Y133.514 E20.3616
G1 F2400 X161.589 Y133.674 E20.3824
G1 X161.996 Y133.91 E20.40588
G1 X162.432 Y134.253 E20.43355
G1 X162.654 Y134.492 E20.44983
G1 X162.91 Y134.824 E20.47074
G1 X163.148 Y135.238 E20.49457
G1 X163.308 Y135.625 E20.51546
G1 F2442.7 X163.423 Y136.087 E20.5388
G1 F2539.7 X163.476 Y136.645 E20.56522
G1 F2637.4 X163.462 Y136.947 E20.57895
G1 F2553.2 X163.415 Y137.447 E20.6025
G1 F2424.2 X163.308 Y137.823 E20.62181
G1 F2400 X163.148 Y138.21 E20.6427
G1 X162.91 Y138.624 E20.66653
G1 X162.654 Y138.956 E20.68744
G1 X162.316 Y139.29 E20.71115
G1 X161.984 Y139.542 E20.73194
G1 X161.589 Y139.77 E20.7547
G1 X161.205 Y139.93 E20.77545
G1 X160.755 Y140.052 E20.79871
G1 X160.343 Y140.108 E20.81946
G1 X160.002 Y140.129 E20.8365
G0 F9000 X160.163 Y139.729
G1 F2400 X159.913 Y139.712 E20.849
G1 X159.304 Y139.622 E20.87972
G1 X158.597 Y139.334 E20.9178
G1 X157.976 Y138.86 E20.95678
G1 X157.494 Y138.235 E20.99615
G1 X157.198 Y137.521 E21.03472
G1 X157.087 Y136.739 E21.07412
G1 X157.163 Y136.136 E21.10444
G1 X157.257 Y135.778 E21.12291
G1 X157.417 Y135.39 E21.14385
G1 X157.603 Y135.068 E21.1624
G1 X157.859 Y134.736 E21.18332
G1 X158.113 Y134.483 E21.2012
G1 X158.445 Y134.226 E21.22215
G1 X158.761 Y134.043 E21.24037
G1 X159.145 Y133.883 E21.26112
G1 X159.442 Y133.796 E21.27656
G1 X160.099 Y133.712 E21.30961
G1 X160.688 Y133.786 E21.33922
G1 X161.051 Y133.883 E21.35797
G1 X161.435 Y134.043 E21.37872
G1 X161.751 Y134.226 E21.39694
G1 X162.165 Y134.551 E21.4232
G1 X162.337 Y134.737 E21.43584
G1 X162.593 Y135.068 E21.45671
G1 X162.778 Y135.39 E21.47524
G1 X162.938 Y135.778 E21.49618
G1 X163.033 Y136.136 E21.51466
G1 X163.107 Y136.722 E21.54413
G1 X163.025 Y137.378 E21.57711
G1 X162.938 Y137.67 E21.59231
G1 X162.778 Y138.058 E21.61325
G1 X162.593 Y138.38 E21.63178
G1 X162.337 Y138.711 E21.65265
G1 X162.075 Y138.971 E21.67107
G1 X161.743 Y139.223 E21.69186
G1 X161.435 Y139.401 E21.70961
G1 X161.051 Y139.561 E21.73036
G1 X160.701 Y139.656 E21.74846
G1 X160.163 Y139.729 E21.77554
G0 F9000 X160.097 Y139.334
G1 F2400 X159.431 Y139.244 E21.80907
G1 X158.789 Y138.977 E21.84376
G1 X158.261 Y138.575 E21.87687
G1 X157.843 Y138.034 E21.91098
G1 X157.575 Y137.389 E21.94582
G1 X157.491 Y136.723 E21.97931
G1 X157.559 Y136.186 E22.00632
G1 X157.627 Y135.93 E22.01953
G1 X157.787 Y135.542 E22.04047
G1 X157.92 Y135.313 E22.05369
G1 X158.176 Y134.981 E22.0746
G1 X158.357 Y134.8 E22.08737
G1 X158.689 Y134.543 E22.10832
G1 X158.915 Y134.412 E22.12135
G1 X159.42 Y134.202 E22.14864
G1 X160.099 Y134.115 E22.18279
G1 X160.638 Y134.183 E22.20989
G1 X160.897 Y134.252 E22.22327
G1 X161.281 Y134.412 E22.24402
G1 X161.507 Y134.543 E22.25705
G1 X161.949 Y134.888 E22.28503
G1 X162.276 Y135.313 E22.31178
G1 X162.409 Y135.542 E22.32499
G1 X162.569 Y135.93 E22.34593
G1 X162.636 Y136.186 E22.35913
G1 X162.7 Y136.757 E22.3878
G1 X162.619 Y137.397 E22.41998
G1 X162.409 Y137.906 E22.44745
G1 X162.276 Y138.135 E22.46066
G1 X162.02 Y138.467 E22.48158
G1 X161.833 Y138.653 E22.49474
G1 X161.501 Y138.905 E22.51553
G1 X161.281 Y139.032 E22.52821
G1 X160.897 Y139.191 E22.54894
G1 X160.647 Y139.259 E22.56187
G1 X160.097 Y139.334 E22.58956
G0 F9000 X160.095 Y138.924
G1 F2400 X159.546 Y138.853 E22.61718
G1 X159 Y138.633 E22.64655
G1 X158.541 Y138.286 E22.67525
G1 X158.191 Y137.832 E22.70385
G1 X157.964 Y137.283 E22.73349
G1 X157.9 Y136.729 E22.76132
G1 X157.964 Y136.162 E22.78978
G1 X158.189 Y135.619 E22.81911
G1 X158.539 Y135.163 E22.84779
G1 X158.994 Y134.813 E22.87642
G1 X159.53 Y134.59 E22.90539
G1 X160.1 Y134.524 E22.93401
G1 X160.663 Y134.589 E22.96229
G1 X161.204 Y134.814 E22.99152
G1 X161.661 Y135.169 E23.02039
G1 X162.008 Y135.619 E23.04874
G1 X162.232 Y136.162 E23.07805
G1 X162.296 Y136.724 E23.10627
G1 X162.23 Y137.289 E23.13465
G1 X162.008 Y137.829 E23.16377
G1 X161.657 Y138.284 E23.19244
G1 X161.198 Y138.633 E23.22121
G1 X160.666 Y138.854 E23.24995
G1 X160.095 Y138.924 E23.27865
G0 F9000 X160.054 Y139.226
G0 X160.732 Y139.087
G0 X161.324 Y138.844
G0 X161.829 Y138.454
G0 X162.219 Y137.949
G0 X162.416 Y137.469
G0 X163.035 Y133.644
G1 F2181.8 X163.007 Y133.596 E23.2817
G1 X162.952 Y133.596 E23.28472
G1 X162.925 Y133.644 E23.28774
G1 X162.953 Y133.692 E23.29079
G1 X163.008 Y133.692 E23.29381
G1 X163.035 Y133.644 E23.29683
G0 F9000 X163.4 Y134.881
G1 F2400 X163.4 Y133.224 E23.3795
G1 X161.604 Y133.224 E23.4691
G1 X162.24 Y133.593 E23.50579
G1 X162.7 Y133.956 E23.53502
G1 X162.97 Y134.248 E23.55486
G1 X163.227 Y134.58 E23.57581
G1 X163.4 Y134.881 E23.59313
G1 F1500 E17.09313
G0 F9000 X162.828 Y166.2
G0 X150 Y166.372
G1 F1500 E23.59313
G1 F2400 X163 Y166.372 E24.2417
G1 X163 Y139.728 E25.57098
G1 X162.8 Y139.927 E25.58505
G1 X162.468 Y140.179 E25.60585
G1 X161.897 Y140.509 E25.63875
G1 X161.512 Y140.668 E25.65953
G1 X160.863 Y140.845 E25.69309
G1 X160.451 Y140.901 E25.71384
G1 X160.078 Y140.924 E25.73248
G1 X159.753 Y140.901 E25.74874
G1 X159.337 Y140.845 E25.76968
G1 X159.089 Y140.8 E25.78225
G1 X158.8 Y140.719 E25.79723
G1 X158.054 Y140.398 E25.83774
G1 X157.728 Y140.18 E25.85731
G1 X157.324 Y139.872 E25.88266
G1 X156.998 Y139.554 E25.90538
G1 X156.563 Y138.988 E25.94099
G1 X156.358 Y138.64 E25.96114
G1 X156.043 Y137.858 E26.0032
G1 X155.972 Y137.462 E26.02327
G1 X155.92 Y137.05 E26.04399
G1 X155.9 Y136.745 E26.05924
G1 X155.92 Y136.398 E26.07658
G1 X155.972 Y135.986 E26.0973
G1 X156.148 Y135.32 E26.13167
G1 X156.308 Y134.933 E26.15256
G1 X156.653 Y134.335 E26.187
G1 X156.908 Y134.004 E26.20785
G1 X157.29 Y133.624 E26.23473
G1 X142.706 Y133.624 E26.96233
G1 X143.088 Y134.004 E26.98921
G1 X143.343 Y134.335 E27.01005
G1 X143.688 Y134.933 E27.0445
G1 X143.848 Y135.32 E27.06539
G1 X144.024 Y135.986 E27.09976
G1 X144.076 Y136.398 E27.12048
G1 X144.096 Y136.745 E27.13782
G1 X144.076 Y137.05 E27.15307
G1 X144.024 Y137.462 E27.17378
G1 X143.953 Y137.857 E27.19381
G1 X143.645 Y138.623 E27.235
G1 X143.522 Y138.849 E27.24783
G1 X143.343 Y139.112 E27.2637
G1 X142.955 Y139.609 E27.29516
G1 X142.672 Y139.872 E27.31444
G1 X142.247 Y140.196 E27.3411
G1 X141.939 Y140.399 E27.3595
G1 X141.195 Y140.718 E27.39989
G1 X140.909 Y140.799 E27.41472
G1 X140.663 Y140.845 E27.4272
G1 X140.251 Y140.9 E27.44794
G1 X139.925 Y140.924 E27.46425
G1 X139.553 Y140.901 E27.48284
