;FLAVOR:Marlin
;TIME:19588
;Filament used: 16.2564m
;Layer height: 0.2
;MINX:106.8
;MINY:86.8
;MINZ:0.3
;MAXX:193.2
;MAXY:213.2
;MAXZ:24.9
;TARGET_MACHINE.NAME:Prusa i3
;Generated with Cura_SteamEngine 5.6.0
M140 S60
M105
M190 S60
M104 S195
M105
M109 S195
M82 ;absolute extrusion mode
G21 ;metric values
G90 ;absolute positioning
M82 ;set extruder to absolute mode
M107 ;start with the fan off
G28 X0 Y0 ;move X/Y to min endstops
G28 Z0 ;move Z to min endstops
G29 ; Preform Bed-Leveling
G1 Z15.0 F9000 ;move the platform down 15mm
G92 E0 ;zero the extruded length
G1 F200 E3 ;extrude 3mm of feed stock
G92 E0 ;zero the extruded length again
G1 F9000
;Put printing message on LCD screen
M117 Printing...
G92 E0
G92 E0
G1 F1500 E-6.5
;LAYER_COUNT:124
;LAYER:0
M107
G0 F3600 X107.454 Y88.082 Z0.3
;TYPE:SKIRT
G1 F1500 E0
G1 X107.789 Y87.704 E0.0252
G1 X108.18 Y87.383 E0.05044
G1 X108.617 Y87.128 E0.07568
G1 X109.088 Y86.944 E0.10091
G1 X109.582 Y86.838 E0.12611
G1 X110.027 Y86.801 E0.14839
G1 X189.339 Y86.8 E4.10528
G1 X190.037 Y86.81 E4.14011
G1 X190.54 Y86.857 E4.16531
G1 X191.03 Y86.983 E4.19056
G1 X191.494 Y87.185 E4.2158
G1 X191.92 Y87.457 E4.24102
G1 X192.298 Y87.792 E4.26622
G1 X192.618 Y88.183 E4.29143
G1 X192.873 Y88.62 E4.31667
G1 X193.056 Y89.091 E4.34188
G1 X193.163 Y89.585 E4.3671
G1 X193.199 Y90.24 E4.39982
G1 X193.2 Y94.338 E4.60427
G1 X193.19 Y95.042 E4.6394
G1 X193.143 Y95.546 E4.66465
G1 X193.017 Y96.035 E4.68985
G1 X192.815 Y96.499 E4.71509
G1 X192.402 Y97.113 E4.75201
G1 X142.105 Y154.117 E8.54473
G1 X140.302 Y156.219 E8.68289
G1 X138.56 Y158.371 E8.82102
G1 X136.919 Y160.52 E8.95592
G1 X135.303 Y162.764 E9.09388
G1 X133.784 Y165.005 E9.22895
G1 X132.278 Y167.369 E9.36879
G1 X130.902 Y169.67 E9.50255
G1 X129.559 Y172.065 E9.63954
G1 X128.281 Y174.507 E9.77705
G1 X127.091 Y176.942 E9.91226
G1 X125.963 Y179.431 E10.0486
G1 X124.885 Y181.992 E10.18722
G1 X123.901 Y184.536 E10.32331
G1 X122.992 Y187.098 E10.45893
G1 X122.142 Y189.726 E10.59673
G1 X121.384 Y192.317 E10.73141
G1 X120.678 Y195.011 E10.87036
G1 X120.071 Y197.629 E11.00443
G1 X119.515 Y200.376 E11.14426
G1 X119.053 Y203.042 E11.27925
G1 X118.667 Y205.726 E11.41453
G1 X118.353 Y208.444 E11.55104
G1 X118.177 Y210.294 E11.64375
G1 X118.089 Y210.792 E11.66898
G1 X117.924 Y211.27 E11.69421
G1 X117.686 Y211.716 E11.71943
G1 X117.381 Y212.119 E11.74465
G1 X117.016 Y212.469 E11.76987
G1 X116.6 Y212.757 E11.79512
G1 X116.145 Y212.976 E11.82031
G1 X115.66 Y213.12 E11.84555
G1 X115.007 Y213.199 E11.87837
G1 X110.661 Y213.2 E12.09519
G1 X109.963 Y213.19 E12.13002
G1 X109.46 Y213.143 E12.15522
G1 X108.97 Y213.017 E12.18046
G1 X108.506 Y212.815 E12.20571
G1 X108.08 Y212.543 E12.23093
G1 X107.702 Y212.208 E12.25612
G1 X107.382 Y211.817 E12.28133
G1 X107.127 Y211.38 E12.30657
G1 X106.944 Y210.909 E12.33178
G1 X106.837 Y210.415 E12.357
G1 X106.801 Y209.745 E12.39048
G1 X106.8 Y90.631 E18.3331
G1 X106.809 Y89.966 E18.36628
G1 X106.856 Y89.462 E18.39153
G1 X106.982 Y88.973 E18.41672
G1 X107.183 Y88.509 E18.44195
G1 X107.454 Y88.082 E18.46718
G1 F1500 E11.96718
;MESH:PoleMountAntennaBracket.stl
G0 F3600 X109.335 Y90.414
G0 X110.414 Y90.414
G0 X114.1 Y180
G0 X114.4 Y180
;TYPE:WALL-INNER
G1 F1500 E18.46718
G1 X114.441 Y179.78 E18.47835
G1 X114.549 Y179.603 E18.48869
G1 X189.4 Y94.771 E24.13294
G1 X189.4 Y90.6 E24.34103
G1 X110.6 Y90.6 E28.27238
G1 X110.6 Y209.4 E34.19933
G1 X114.4 Y209.4 E34.38891
G1 X114.4 Y180 E35.85569
G0 F3600 X114.8 Y179.923
;TYPE:WALL-OUTER
G1 F1500 X189.8 Y94.922 E41.51117
G1 X189.8 Y90.2 E41.74675
G1 X110.2 Y90.2 E45.71801
G1 X110.2 Y209.8 E51.68488
G1 X114.8 Y209.8 E51.91437
G1 X114.8 Y179.923 E53.40494
G0 F3600 X114.932 Y179.774
G0 X114.102 Y179.611
;TYPE:SKIN
G1 F1500 X114.023 Y179.964 E53.42299
G1 X114.02 Y209.02 E54.8726
G1 X110.98 Y209.02 E55.02427
G1 X110.981 Y90.981 E60.91326
G1 X189.02 Y90.98 E64.80664
G1 X189.02 Y94.625 E64.98849
G1 X114.265 Y179.348 E70.62548
G1 X114.102 Y179.611 E70.64092
G0 F3600 X111.521 Y208.819
G1 F1500 X111.18 Y208.478 E70.66498
G0 F3600 X111.18 Y207.912
G1 F1500 X112.087 Y208.819 E70.72897
G0 F3600 X112.652 Y208.819
G1 F1500 X111.18 Y207.347 E70.83283
G0 F3600 X111.18 Y206.781
G1 F1500 X113.218 Y208.819 E70.97662
G0 F3600 X113.784 Y208.819
G1 F1500 X111.18 Y206.215 E71.16035
G0 F3600 X111.18 Y205.649
G1 F1500 X113.82 Y208.289 E71.34662
G0 F3600 X113.82 Y207.723
G1 F1500 X111.18 Y205.084 E71.53285
G0 F3600 X111.18 Y204.518
G1 F1500 X113.82 Y207.158 E71.71911
G0 F3600 X113.82 Y206.592
G1 F1500 X111.18 Y203.952 E71.90538
G0 F3600 X111.18 Y203.387
G1 F1500 X113.82 Y206.026 E72.09161
G0 F3600 X113.82 Y205.461
G1 F1500 X111.18 Y202.821 E72.27788
G0 F3600 X111.18 Y202.255
G1 F1500 X113.82 Y204.896 E72.46418
G0 F3600 X113.82 Y204.33
G1 F1500 X111.18 Y201.69 E72.65044
G0 F3600 X111.18 Y201.124
G1 F1500 X113.82 Y203.764 E72.83671
G0 F3600 X113.82 Y203.199
G1 F1500 X111.18 Y200.558 E73.02301
G0 F3600 X111.18 Y199.993
G1 F1500 X113.82 Y202.633 E73.20928
G0 F3600 X113.821 Y202.068
G1 F1500 X111.18 Y199.427 E73.39561
G0 F3600 X111.18 Y198.861
G1 F1500 X113.821 Y201.502 E73.58195
G0 F3600 X113.821 Y200.937
G1 F1500 X111.18 Y198.296 E73.76829
G0 F3600 X111.18 Y197.73
G1 F1500 X113.821 Y200.371 E73.95462
G0 F3600 X113.821 Y199.805
G1 F1500 X111.18 Y197.164 E74.14096
G0 F3600 X111.18 Y196.599
G1 F1500 X113.821 Y199.24 E74.3273
G0 F3600 X113.822 Y198.675
G1 F1500 X111.18 Y196.033 E74.51371
G0 F3600 X111.18 Y195.467
G1 F1500 X113.822 Y198.109 E74.70011
G0 F3600 X113.822 Y197.543
G1 F1500 X111.18 Y194.901 E74.88652
G0 F3600 X111.18 Y194.336
G1 F1500 X113.822 Y196.978 E75.07293
G0 F3600 X113.822 Y196.412
G1 F1500 X111.18 Y193.77 E75.25934
G0 F3600 X111.18 Y193.204
G1 F1500 X113.822 Y195.847 E75.44578
G0 F3600 X113.822 Y195.281
G1 F1500 X111.18 Y192.639 E75.63219
G0 F3600 X111.18 Y192.073
G1 F1500 X113.822 Y194.715 E75.81859
G0 F3600 X113.822 Y194.15
G1 F1500 X111.18 Y191.507 E76.00504
G0 F3600 X111.18 Y190.942
G1 F1500 X113.822 Y193.584 E76.19144
G0 F3600 X113.822 Y193.018
G1 F1500 X111.18 Y190.376 E76.37785
G0 F3600 X111.18 Y189.81
G1 F1500 X113.823 Y192.453 E76.56433
G0 F3600 X113.823 Y191.888
G1 F1500 X111.18 Y189.245 E76.75081
G0 F3600 X111.18 Y188.679
G1 F1500 X113.823 Y191.322 E76.93728
G0 F3600 X113.823 Y190.756
G1 F1500 X111.18 Y188.113 E77.12376
G0 F3600 X111.18 Y187.548
G1 F1500 X113.823 Y190.191 E77.31024
G0 F3600 X113.823 Y189.625
G1 F1500 X111.18 Y186.982 E77.49672
G0 F3600 X111.18 Y186.416
G1 F1500 X113.824 Y189.06 E77.68327
G0 F3600 X113.824 Y188.494
G1 F1500 X111.18 Y185.85 E77.86981
G0 F3600 X111.18 Y185.285
G1 F1500 X113.824 Y187.929 E78.05636
G0 F3600 X113.824 Y187.363
G1 F1500 X111.18 Y184.719 E78.24291
G0 F3600 X111.18 Y184.153
G1 F1500 X113.824 Y186.797 E78.42946
G0 F3600 X113.825 Y186.232
G1 F1500 X111.18 Y183.588 E78.61604
G0 F3600 X111.18 Y183.022
G1 F1500 X113.825 Y185.667 E78.80266
G0 F3600 X113.825 Y185.101
G1 F1500 X111.18 Y182.456 E78.98928
G0 F3600 X111.18 Y181.891
G1 F1500 X113.825 Y184.535 E79.17587
G0 F3600 X113.825 Y183.97
G1 F1500 X111.18 Y181.325 E79.36248
G0 F3600 X111.18 Y180.759
G1 F1500 X113.825 Y183.404 E79.5491
G0 F3600 X113.825 Y182.839
G1 F1500 X111.18 Y180.194 E79.73572
G0 F3600 X111.18 Y179.628
G1 F1500 X113.825 Y182.273 E79.92234
G0 F3600 X113.825 Y181.708
G1 F1500 X111.18 Y179.062 E80.109
G0 F3600 X111.18 Y178.497
G1 F1500 X113.825 Y181.142 E80.29562
G0 F3600 X113.825 Y180.576
G1 F1500 X111.18 Y177.931 E80.48223
G0 F3600 X111.18 Y177.365
G1 F1500 X113.825 Y180.011 E80.66889
G0 F3600 X113.921 Y179.541
G1 F1500 X111.18 Y176.8 E80.86228
G0 F3600 X111.18 Y176.234
G1 F1500 X114.136 Y179.19 E81.07084
G0 F3600 X114.402 Y178.89
G1 F1500 X111.18 Y175.668 E81.29817
G0 F3600 X111.18 Y175.102
G1 F1500 X114.667 Y178.589 E81.5442
G0 F3600 X114.932 Y178.289
G1 F1500 X111.18 Y174.537 E81.80892
G0 F3600 X111.18 Y173.971
G1 F1500 X115.197 Y177.988 E82.09234
G0 F3600 X115.462 Y177.688
G1 F1500 X111.18 Y173.405 E82.3945
G0 F3600 X111.18 Y172.84
G1 F1500 X115.727 Y177.387 E82.71531
G0 F3600 X115.993 Y177.087
G1 F1500 X111.18 Y172.274 E83.0549
G0 F3600 X111.18 Y171.708
G1 F1500 X116.258 Y176.786 E83.41318
G0 F3600 X116.523 Y176.486
G1 F1500 X111.18 Y171.143 E83.79015
G0 F3600 X111.18 Y170.577
G1 F1500 X116.788 Y176.185 E84.18583
G0 F3600 X117.053 Y175.885
G1 F1500 X111.18 Y170.011 E84.60024
G0 F3600 X111.18 Y169.446
G1 F1500 X117.318 Y175.584 E85.0333
G0 F3600 X117.584 Y175.283
G1 F1500 X111.18 Y168.88 E85.48511
G0 F3600 X111.18 Y168.314
G1 F1500 X117.849 Y174.983 E85.95564
G0 F3600 X118.114 Y174.682
G1 F1500 X111.18 Y167.749 E86.44484
G0 F3600 X111.18 Y167.183
G1 F1500 X118.379 Y174.382 E86.95276
G0 F3600 X118.644 Y174.081
G1 F1500 X111.18 Y166.617 E87.47939
G0 F3600 X111.18 Y166.052
G1 F1500 X118.909 Y173.781 E88.02471
G0 F3600 X119.175 Y173.48
G1 F1500 X111.18 Y165.486 E88.58877
G0 F3600 X111.18 Y164.92
G1 F1500 X119.44 Y173.18 E89.17156
G0 F3600 X119.705 Y172.879
G1 F1500 X111.18 Y164.354 E89.77304
G0 F3600 X111.18 Y163.789
G1 F1500 X119.97 Y172.579 E90.39322
G0 F3600 X120.235 Y172.278
G1 F1500 X111.18 Y163.223 E91.0321
G0 F3600 X111.18 Y162.657
G1 F1500 X120.5 Y171.978 E91.68971
G0 F3600 X120.766 Y171.677
G1 F1500 X111.18 Y162.092 E92.36602
G0 F3600 X111.18 Y161.526
G1 F1500 X121.031 Y171.377 E93.06106
G0 F3600 X121.296 Y171.076
G1 F1500 X111.18 Y160.96 E93.7748
G0 F3600 X111.18 Y160.395
G1 F1500 X121.561 Y170.776 E94.50724
G0 F3600 X121.826 Y170.475
G1 F1500 X111.18 Y159.829 E95.25837
G0 F3600 X111.18 Y159.263
G1 F1500 X122.091 Y170.175 E96.02823
G0 F3600 X122.357 Y169.874
G1 F1500 X111.18 Y158.698 E96.8168
G0 F3600 X111.18 Y158.132
G1 F1500 X122.622 Y169.574 E97.62409
G0 F3600 X122.887 Y169.273
G1 F1500 X111.18 Y157.566 E98.45008
G0 F3600 X111.18 Y157.001
G1 F1500 X123.152 Y168.973 E99.29477
G0 F3600 X123.417 Y168.672
G1 F1500 X111.18 Y156.435 E100.15816
G0 F3600 X111.18 Y155.869
G1 F1500 X123.682 Y168.372 E101.04028
G0 F3600 X123.948 Y168.071
G1 F1500 X111.18 Y155.303 E101.94113
G0 F3600 X111.18 Y154.738
G1 F1500 X124.213 Y167.77 E102.86064
G0 F3600 X124.478 Y167.47
G1 F1500 X111.18 Y154.172 E103.79889
G0 F3600 X111.18 Y153.606
G1 F1500 X124.743 Y167.169 E104.75583
G0 F3600 X125.008 Y166.869
G1 F1500 X111.18 Y153.041 E105.73147
G0 F3600 X111.18 Y152.475
G1 F1500 X125.273 Y166.568 E106.72581
G0 F3600 X125.539 Y166.268
G1 F1500 X111.18 Y151.909 E107.73891
G0 F3600 X111.18 Y151.344
G1 F1500 X125.804 Y165.967 E108.77068
G0 F3600 X126.069 Y165.667
G1 F1500 X111.18 Y150.778 E109.82118
G0 F3600 X111.18 Y150.212
G1 F1500 X126.334 Y165.366 E110.89038
G0 F3600 X126.599 Y165.066
G1 F1500 X111.18 Y149.647 E111.97827
G0 F3600 X111.18 Y149.081
G1 F1500 X126.864 Y164.765 E113.08486
G0 F3600 X127.13 Y164.465
G1 F1500 X111.18 Y148.515 E114.21022
G0 F3600 X111.18 Y147.95
G1 F1500 X127.395 Y164.164 E115.35424
G0 F3600 X127.66 Y163.864
G1 F1500 X111.18 Y147.384 E116.51699
G0 F3600 X111.18 Y146.818
G1 F1500 X127.925 Y163.563 E117.69844
G0 F3600 X128.19 Y163.263
G1 F1500 X111.18 Y146.253 E118.89859
G0 F3600 X111.18 Y145.687
G1 F1500 X128.455 Y162.962 E120.11744
G0 F3600 X128.721 Y162.662
G1 F1500 X111.18 Y145.121 E121.35505
G0 F3600 X111.18 Y144.555
G1 F1500 X128.986 Y162.361 E122.61136
G0 F3600 X129.251 Y162.061
G1 F1500 X111.18 Y143.99 E123.88636
G0 F3600 X111.18 Y143.424
G1 F1500 X129.516 Y161.76 E125.18007
G0 F3600 X129.781 Y161.46
G1 F1500 X111.18 Y142.858 E126.4925
G0 F3600 X111.18 Y142.293
G1 F1500 X130.046 Y161.159 E127.8236
G0 F3600 X130.312 Y160.859
G1 F1500 X111.18 Y141.727 E129.17347
G0 F3600 X111.18 Y141.161
G1 F1500 X130.577 Y160.558 E130.54203
G0 F3600 X130.842 Y160.257
G1 F1500 X111.18 Y140.596 E131.92926
G0 F3600 X111.18 Y140.03
G1 F1500 X131.107 Y159.957 E133.33521
G0 F3600 X131.372 Y159.656
G1 F1500 X111.18 Y139.464 E134.75987
G0 F3600 X111.18 Y138.899
G1 F1500 X131.637 Y159.356 E136.20322
G0 F3600 X131.902 Y159.055
G1 F1500 X111.18 Y138.333 E137.66527
G0 F3600 X111.18 Y137.767
G1 F1500 X132.168 Y158.755 E139.14609
G0 F3600 X132.433 Y158.454
G1 F1500 X111.18 Y137.202 E140.64557
G0 F3600 X111.18 Y136.636
G1 F1500 X132.698 Y158.154 E142.16378
G0 F3600 X132.963 Y157.853
G1 F1500 X111.18 Y136.07 E143.70069
G0 F3600 X111.18 Y135.504
G1 F1500 X133.228 Y157.553 E145.25633
G0 F3600 X133.493 Y157.252
G1 F1500 X111.18 Y134.939 E146.83063
G0 F3600 X111.18 Y134.373
G1 F1500 X133.759 Y156.952 E148.4237
G0 F3600 X134.024 Y156.651
G1 F1500 X111.18 Y133.807 E150.03547
G0 F3600 X111.18 Y133.242
G1 F1500 X134.289 Y156.351 E151.66593
G0 F3600 X134.554 Y156.05
G1 F1500 X111.18 Y132.676 E153.31509
G0 F3600 X111.18 Y132.11
G1 F1500 X134.819 Y155.75 E154.98299
G0 F3600 X135.084 Y155.449
G1 F1500 X111.18 Y131.545 E156.66954
G0 F3600 X111.18 Y130.979
G1 F1500 X135.35 Y155.149 E158.37487
G0 F3600 X135.615 Y154.848
G1 F1500 X111.18 Y130.413 E160.09889
G0 F3600 X111.18 Y129.848
G1 F1500 X135.88 Y154.548 E161.84161
G0 F3600 X136.145 Y154.247
G1 F1500 X111.18 Y129.282 E163.60302
G0 F3600 X111.18 Y128.716
G1 F1500 X136.41 Y153.947 E165.38317
G0 F3600 X136.675 Y153.646
G1 F1500 X111.18 Y128.151 E167.18198
G0 F3600 X111.18 Y127.585
G1 F1500 X136.941 Y153.346 E168.99956
G0 F3600 X137.206 Y153.045
G1 F1500 X111.18 Y127.019 E170.83583
G0 F3600 X111.18 Y126.454
G1 F1500 X137.471 Y152.744 E172.69077
G0 F3600 X137.736 Y152.444
G1 F1500 X111.18 Y125.888 E174.56444
G0 F3600 X111.18 Y125.322
G1 F1500 X138.001 Y152.143 E176.45681
G0 F3600 X138.266 Y151.843
G1 F1500 X111.18 Y124.756 E178.3679
G0 F3600 X111.18 Y124.191
G1 F1500 X138.532 Y151.542 E180.2977
G0 F3600 X138.797 Y151.242
G1 F1500 X111.18 Y123.625 E182.24623
G0 F3600 X111.18 Y123.059
G1 F1500 X139.062 Y150.941 E184.21346
G0 F3600 X139.327 Y150.641
G1 F1500 X111.18 Y122.494 E186.19938
G0 F3600 X111.18 Y121.928
G1 F1500 X139.592 Y150.34 E188.204
G0 F3600 X139.857 Y150.04
G1 F1500 X111.18 Y121.362 E190.22735
G0 F3600 X111.18 Y120.797
G1 F1500 X140.123 Y149.739 E192.2694
G0 F3600 X140.388 Y149.439
G1 F1500 X111.18 Y120.231 E194.33018
G0 F3600 X111.18 Y119.665
G1 F1500 X140.653 Y149.138 E196.40966
G0 F3600 X140.918 Y148.838
G1 F1500 X111.18 Y119.1 E198.50784
G0 F3600 X111.18 Y118.534
G1 F1500 X141.183 Y148.537 E200.62471
G0 F3600 X141.448 Y148.237
G1 F1500 X111.18 Y117.968 E202.76032
G0 F3600 X111.18 Y117.403
G1 F1500 X141.714 Y147.936 E204.91462
G0 F3600 X141.979 Y147.636
G1 F1500 X111.18 Y116.837 E207.08766
G0 F3600 X111.18 Y116.271
G1 F1500 X142.244 Y147.335 E209.27939
G0 F3600 X142.509 Y147.035
G1 F1500 X111.18 Y115.706 E211.48982
G0 F3600 X111.18 Y115.14
G1 F1500 X142.774 Y146.734 E213.71895
G0 F3600 X143.039 Y146.434
G1 F1500 X111.18 Y114.574 E215.96681
G0 F3600 X111.18 Y114.008
G1 F1500 X143.305 Y146.133 E218.2334
G0 F3600 X143.57 Y145.832
G1 F1500 X111.18 Y113.443 E220.51865
G0 F3600 X111.18 Y112.877
G1 F1500 X143.835 Y145.532 E222.82264
G0 F3600 X144.1 Y145.231
G1 F1500 X111.18 Y112.311 E225.14532
G0 F3600 X111.18 Y111.746
G1 F1500 X144.365 Y144.931 E227.48671
G0 F3600 X144.63 Y144.63
G1 F1500 X111.18 Y111.18 E229.84678
G0 F3600 X111.18 Y110.614
G1 F1500 X144.896 Y144.33 E232.22563
G0 F3600 X145.161 Y144.029
G1 F1500 X111.18 Y110.049 E234.62314
G0 F3600 X111.18 Y109.483
G1 F1500 X145.426 Y143.729 E237.03938
G0 F3600 X145.691 Y143.428
G1 F1500 X111.18 Y108.917 E239.47432
G0 F3600 X111.18 Y108.352
G1 F1500 X145.956 Y143.128 E241.92795
G0 F3600 X146.221 Y142.827
G1 F1500 X111.18 Y107.786 E244.40028
G0 F3600 X111.18 Y107.22
G1 F1500 X146.487 Y142.527 E246.89138
G0 F3600 X146.752 Y142.226
G1 F1500 X111.18 Y106.655 E249.40114
G0 F3600 X111.18 Y106.089
G1 F1500 X147.017 Y141.926 E251.92964
G0 F3600 X147.282 Y141.625
G1 F1500 X111.18 Y105.523 E254.47683
G0 F3600 X111.18 Y104.957
G1 F1500 X147.547 Y141.325 E257.04275
G0 F3600 X147.812 Y141.024
G1 F1500 X111.18 Y104.392 E259.62734
G0 F3600 X111.18 Y103.826
G1 F1500 X148.078 Y140.724 E262.23069
G0 F3600 X148.343 Y140.423
G1 F1500 X111.18 Y103.26 E264.85274
G0 F3600 X111.18 Y102.695
G1 F1500 X148.608 Y140.123 E267.49349
G0 F3600 X148.873 Y139.822
G1 F1500 X111.18 Y102.129 E270.15293
G0 F3600 X111.18 Y101.563
G1 F1500 X149.138 Y139.522 E272.83111
G0 F3600 X149.403 Y139.221
G1 F1500 X111.18 Y100.998 E275.52795
